;FLAVOR:Marlin
;TIME:9622
;Filament used: 6.06226m
;Layer height: 0.2
;MINX:102.9
;MINY:80.65
;MINZ:0.2
;MAXX:141.98
;MAXY:135.55
;MAXZ:40.2
;Generated with Cura_SteamEngine 4.13.1
M140 S60
M105
M190 S60
M104 S200
M105
M109 S200
M82 ;absolute extrusion mode
; Ender 3 Custom Start G-code
G92 E0 ; Reset Extruder
G28 ; Home all axes
G1 Z2.0 F3000 ; Move Z Axis up little to prevent scratching of Heat Bed
G1 X0.1 Y20 Z0.3 F5000.0 ; Move to start position
G1 X0.1 Y200.0 Z0.3 F1500.0 E15 ; Draw the first line
G1 X0.4 Y200.0 Z0.3 F5000.0 ; Move to side a little
G1 X0.4 Y20 Z0.3 F1500.0 E30 ; Draw the second line
G92 E0 ; Reset Extruder
G1 Z2.0 F3000 ; Move Z Axis up little to prevent scratching of Heat Bed
G1 X5 Y20 Z0.3 F5000.0 ; Move over to prevent blob squish
G92 E0
G92 E0
G1 F2700 E-5
;LAYER_COUNT:201
;LAYER:0
M107
G0 F6000 X107.374 Y84.6 Z0.2
;TYPE:SKIRT
G1 F2700 E0
G1 F1200 X108.006 Y83.907 E0.03119
G1 X108.695 Y83.27 E0.0624
G1 X109.435 Y82.694 E0.09359
G1 X110.222 Y82.184 E0.12479
G1 X111.05 Y81.742 E0.156
G1 X111.912 Y81.373 E0.18719
G1 X112.802 Y81.078 E0.21838
G1 X113.714 Y80.86 E0.24956
G1 X114.642 Y80.721 E0.28077
G1 X115.5 Y80.663 E0.30937
G1 X115.819 Y80.654 E0.31999
G1 X116.13 Y80.65 E0.33033
G1 X125.253 Y80.652 E0.63377
G1 X125.962 Y80.662 E0.65735
G1 X126.285 Y80.671 E0.6681
G1 X126.979 Y80.702 E0.6912
G1 X128.511 Y80.788 E0.74224
G1 X131.17 Y80.864 E0.83071
G1 X132.106 Y80.931 E0.86192
G1 X133.032 Y81.077 E0.8931
G1 X133.943 Y81.301 E0.92431
G1 X134.831 Y81.603 E0.9555
G1 X135.691 Y81.978 E0.98671
G1 X136.515 Y82.426 E1.0179
G1 X137.298 Y82.942 E1.04909
G1 X138.034 Y83.523 E1.08028
G1 X138.718 Y84.165 E1.11148
G1 X139.187 Y84.675 E1.13452
G1 X139.3 Y84.806 E1.14028
G1 X139.882 Y85.542 E1.17149
G1 X140.399 Y86.324 E1.20267
G1 X140.848 Y87.148 E1.23388
G1 X141.224 Y88.007 E1.26506
G1 X141.526 Y88.895 E1.29626
G1 X141.752 Y89.805 E1.32745
G1 X141.899 Y90.731 E1.35863
G1 X141.966 Y91.65 E1.38928
G1 X141.974 Y91.977 E1.40016
G1 X141.98 Y92.504 E1.41769
G1 X141.979 Y106.204 E1.87335
G1 X141.972 Y106.713 E1.89028
G1 X141.968 Y109.09 E1.96934
G1 X141.98 Y110.211 E2.00663
G1 X141.979 Y123.846 E2.46013
G1 X141.969 Y124.578 E2.48448
G1 X141.916 Y125.515 E2.51569
G1 X141.784 Y126.443 E2.54687
G1 X141.573 Y127.357 E2.57807
G1 X141.285 Y128.25 E2.60928
G1 X140.922 Y129.114 E2.64045
G1 X140.486 Y129.945 E2.67166
G1 X139.982 Y130.736 E2.70285
G1 X139.412 Y131.48 E2.73403
G1 X138.748 Y132.206 E2.76675
G1 X138.636 Y132.318 E2.77202
G1 X137.945 Y132.952 E2.80321
G1 X137.203 Y133.526 E2.83441
G1 X136.414 Y134.033 E2.8656
G1 X135.586 Y134.472 E2.89677
G1 X134.722 Y134.839 E2.928
G1 X133.831 Y135.131 E2.95918
G1 X132.918 Y135.345 E2.99037
G1 X131.99 Y135.482 E3.02157
G1 X131.229 Y135.534 E3.04694
G1 X130.844 Y135.544 E3.05975
G1 X130.301 Y135.55 E3.07781
G1 X127.151 Y135.549 E3.18258
G1 X126.445 Y135.539 E3.20607
G1 X126.13 Y135.53 E3.21655
G1 X125.138 Y135.486 E3.24957
G1 X124.192 Y135.432 E3.28109
G1 X121.605 Y135.359 E3.36717
G1 X120.305 Y135.35 E3.41041
G1 X116.507 Y135.35 E3.53673
G1 X115.651 Y135.339 E3.5652
G1 X114.715 Y135.285 E3.59638
G1 X113.787 Y135.153 E3.62756
G1 X112.873 Y134.941 E3.65877
G1 X111.981 Y134.652 E3.68995
G1 X111.116 Y134.289 E3.72115
G1 X110.286 Y133.853 E3.75234
G1 X109.495 Y133.348 E3.78355
G1 X108.751 Y132.777 E3.81474
G1 X108.058 Y132.145 E3.84594
G1 X107.421 Y131.457 E3.87712
G1 X106.846 Y130.716 E3.90832
G1 X106.335 Y129.93 E3.9395
G1 X105.893 Y129.102 E3.97072
G1 X105.524 Y128.24 E4.00191
G1 X105.229 Y127.35 E4.03309
G1 X105.011 Y126.438 E4.06428
G1 X104.871 Y125.51 E4.09549
G1 X104.813 Y124.638 E4.12456
G1 X104.804 Y124.306 E4.13561
G1 X104.8 Y124.008 E4.14552
G1 X104.801 Y109.915 E4.61425
G1 X104.805 Y109.634 E4.6236
G1 X104.805 Y107.106 E4.70768
G1 X104.8 Y106.417 E4.7306
G1 X104.801 Y92.188 E5.20386
G1 X104.811 Y91.499 E5.22678
G1 X104.865 Y90.563 E5.25796
G1 X104.998 Y89.635 E5.28914
G1 X105.21 Y88.721 E5.32035
G1 X105.498 Y87.829 E5.35152
G1 X105.862 Y86.964 E5.38274
G1 X106.298 Y86.134 E5.41392
G1 X106.803 Y85.344 E5.44511
G1 X107.374 Y84.6 E5.4763
G0 F6000 X107.768 Y84.753
G1 F1200 X108.398 Y84.081 E5.50694
G1 X109.083 Y83.467 E5.53753
G1 X109.82 Y82.914 E5.56818
G1 X110.601 Y82.427 E5.59879
G1 X111.422 Y82.01 E5.62942
G1 X112.276 Y81.666 E5.66004
G1 X113.156 Y81.397 E5.69064
G1 X114.057 Y81.205 E5.72129
G1 X114.97 Y81.092 E5.75188
G1 X115.511 Y81.063 E5.7699
G1 X115.83 Y81.054 E5.78052
G1 X116.13 Y81.05 E5.7905
G1 X125.247 Y81.052 E6.09373
G1 X125.956 Y81.062 E6.11731
G1 X126.267 Y81.071 E6.12766
G1 X126.956 Y81.102 E6.1506
G1 X128.476 Y81.188 E6.20124
G1 X131.159 Y81.264 E6.29051
G1 X132.077 Y81.33 E6.32112
G1 X132.986 Y81.476 E6.35174
G1 X133.879 Y81.7 E6.38236
G1 X134.75 Y82 E6.413
G1 X135.591 Y82.375 E6.44363
G1 X136.396 Y82.822 E6.47425
G1 X137.159 Y83.336 E6.50485
G1 X137.875 Y83.915 E6.53548
G1 X138.538 Y84.554 E6.56611
G1 X138.884 Y84.936 E6.58325
G1 X138.997 Y85.067 E6.589
G1 X139.568 Y85.79 E6.61964
G1 X140.074 Y86.559 E6.65026
G1 X140.511 Y87.37 E6.6809
G1 X140.876 Y88.215 E6.71152
G1 X141.166 Y89.089 E6.74215
G1 X141.379 Y89.984 E6.77274
G1 X141.514 Y90.895 E6.80338
G1 X141.566 Y91.662 E6.82894
G1 X141.574 Y91.982 E6.83959
G1 X141.58 Y92.504 E6.85695
G1 X141.579 Y106.198 E7.31242
G1 X141.572 Y106.706 E7.32932
G1 X141.568 Y109.13 E7.40994
G1 X141.58 Y110.211 E7.4459
G1 X141.579 Y123.841 E7.89923
G1 X141.569 Y124.573 E7.92358
G1 X141.516 Y125.492 E7.9542
G1 X141.384 Y126.403 E7.98481
G1 X141.174 Y127.299 E8.01542
G1 X140.886 Y128.174 E8.04606
G1 X140.524 Y129.02 E8.07667
G1 X140.089 Y129.832 E8.1073
G1 X139.586 Y130.603 E8.13792
G1 X139.018 Y131.327 E8.16853
G1 X138.465 Y131.923 E8.19557
G1 X138.353 Y132.035 E8.20084
G1 X137.675 Y132.657 E8.23144
G1 X136.945 Y133.218 E8.26206
G1 X136.169 Y133.714 E8.29269
G1 X135.353 Y134.14 E8.32331
G1 X134.503 Y134.494 E8.35394
G1 X133.625 Y134.772 E8.38457
G1 X132.727 Y134.974 E8.41518
G1 X131.814 Y135.097 E8.44582
G1 X131.216 Y135.134 E8.46575
G1 X130.84 Y135.144 E8.47826
G1 X130.301 Y135.15 E8.49619
G1 X127.157 Y135.149 E8.60076
G1 X126.451 Y135.139 E8.62424
G1 X126.147 Y135.13 E8.63436
G1 X125.161 Y135.087 E8.66718
G1 X124.192 Y135.032 E8.69946
G1 X121.618 Y134.959 E8.78511
G1 X120.308 Y134.95 E8.82868
G1 X116.507 Y134.95 E8.9551
G1 X115.657 Y134.939 E8.98338
G1 X114.738 Y134.886 E9.01399
G1 X113.827 Y134.753 E9.04461
G1 X112.931 Y134.542 E9.07523
G1 X112.057 Y134.254 E9.10584
G1 X111.21 Y133.891 E9.13649
G1 X110.399 Y133.456 E9.1671
G1 X109.629 Y132.952 E9.19771
G1 X108.905 Y132.383 E9.22833
G1 X108.233 Y131.753 E9.25897
G1 X107.618 Y131.068 E9.28959
G1 X107.065 Y130.332 E9.32021
G1 X106.578 Y129.551 E9.35082
G1 X106.161 Y128.73 E9.38145
G1 X105.816 Y127.876 E9.41208
G1 X105.547 Y126.996 E9.44269
G1 X105.355 Y126.095 E9.47333
G1 X105.242 Y125.182 E9.50392
G1 X105.213 Y124.627 E9.52241
G1 X105.204 Y124.295 E9.53346
G1 X105.2 Y124.008 E9.543
G1 X105.201 Y109.921 E10.01154
G1 X105.205 Y109.64 E10.02089
G1 X105.205 Y107.103 E10.10527
G1 X105.2 Y106.414 E10.12818
G1 X105.201 Y92.194 E10.60114
G1 X105.211 Y91.505 E10.62406
G1 X105.264 Y90.586 E10.65468
G1 X105.397 Y89.675 E10.6853
G1 X105.609 Y88.779 E10.71592
G1 X105.897 Y87.905 E10.74653
G1 X106.26 Y87.059 E10.77715
G1 X106.695 Y86.247 E10.80779
G1 X107.199 Y85.477 E10.8384
G1 X107.768 Y84.753 E10.86902
G0 F6000 X108.162 Y84.91
G1 F1200 X108.789 Y84.26 E10.89906
G1 X109.471 Y83.668 E10.9291
G1 X110.203 Y83.138 E10.95916
G1 X110.979 Y82.676 E10.98919
G1 X111.792 Y82.284 E11.01921
G1 X112.637 Y81.965 E11.04925
G1 X113.507 Y81.722 E11.0793
G1 X114.395 Y81.558 E11.10933
G1 X115.522 Y81.463 E11.14695
G1 X115.841 Y81.454 E11.15756
G1 X116.13 Y81.45 E11.16718
G1 X125.242 Y81.452 E11.47024
G1 X125.951 Y81.462 E11.49383
G1 X126.25 Y81.471 E11.50378
G1 X126.934 Y81.501 E11.52655
G1 X128.479 Y81.588 E11.57802
G1 X131.148 Y81.664 E11.66682
G1 X132.048 Y81.73 E11.69684
G1 X132.94 Y81.875 E11.7269
G1 X133.815 Y82.098 E11.75693
G1 X134.667 Y82.398 E11.78697
G1 X135.489 Y82.772 E11.81701
G1 X136.275 Y83.217 E11.84705
G1 X137.018 Y83.73 E11.87708
G1 X137.713 Y84.307 E11.90712
G1 X138.582 Y85.198 E11.94852
G1 X138.695 Y85.329 E11.95427
G1 X139.254 Y86.038 E11.9843
G1 X139.748 Y86.794 E12.01434
G1 X140.173 Y87.591 E12.04438
G1 X140.526 Y88.422 E12.07441
G1 X140.804 Y89.281 E12.10444
G1 X141.006 Y90.161 E12.13447
G1 X141.128 Y91.056 E12.16451
G1 X141.166 Y91.675 E12.18514
G1 X141.174 Y91.987 E12.19552
G1 X141.18 Y92.504 E12.21272
G1 X141.179 Y106.193 E12.66802
G1 X141.172 Y106.701 E12.68491
G1 X141.168 Y109.129 E12.76567
G1 X141.18 Y110.211 E12.80166
G1 X141.179 Y123.835 E13.2548
G1 X141.169 Y124.567 E13.27914
G1 X141.117 Y125.469 E13.30919
G1 X140.985 Y126.362 E13.33922
G1 X140.775 Y127.241 E13.36928
G1 X140.487 Y128.097 E13.39932
G1 X140.126 Y128.924 E13.42933
G1 X139.692 Y129.716 E13.45937
G1 X139.19 Y130.467 E13.48941
G1 X138.624 Y131.171 E13.51946
G1 X138.182 Y131.64 E13.54089
G1 X138.07 Y131.752 E13.54616
G1 X137.404 Y132.362 E13.5762
G1 X136.687 Y132.911 E13.60623
G1 X135.923 Y133.393 E13.63628
G1 X135.12 Y133.807 E13.66633
G1 X134.284 Y134.147 E13.69634
G1 X133.421 Y134.413 E13.72638
G1 X132.538 Y134.601 E13.75641
G1 X131.202 Y134.734 E13.80106
G1 X130.835 Y134.744 E13.81327
G1 X130.301 Y134.75 E13.83103
G1 X127.163 Y134.749 E13.9354
G1 X126.457 Y134.739 E13.95889
G1 X126.164 Y134.731 E13.96864
G1 X125.183 Y134.688 E14.0013
G1 X124.188 Y134.632 E14.03444
G1 X121.634 Y134.559 E14.11942
G1 X120.31 Y134.55 E14.16346
G1 X116.507 Y134.55 E14.28995
G1 X115.663 Y134.539 E14.31802
G1 X114.761 Y134.486 E14.34808
G1 X113.868 Y134.354 E14.3781
G1 X112.99 Y134.143 E14.40813
G1 X112.134 Y133.855 E14.43817
G1 X111.307 Y133.493 E14.4682
G1 X110.515 Y133.058 E14.49825
G1 X109.764 Y132.556 E14.5283
G1 X109.061 Y131.989 E14.55834
G1 X108.411 Y131.362 E14.58837
G1 X107.819 Y130.68 E14.61841
G1 X107.289 Y129.949 E14.64844
G1 X106.827 Y129.173 E14.67848
G1 X106.434 Y128.36 E14.70851
G1 X106.116 Y127.515 E14.73854
G1 X105.873 Y126.645 E14.76859
G1 X105.708 Y125.757 E14.79863
G1 X105.613 Y124.616 E14.83671
G1 X105.604 Y124.284 E14.84776
G1 X105.6 Y124.008 E14.85694
G1 X105.601 Y109.927 E15.32527
G1 X105.605 Y109.646 E15.33462
G1 X105.605 Y107.1 E15.4193
G1 X105.6 Y106.411 E15.44222
G1 X105.601 Y92.2 E15.91488
G1 X105.611 Y91.511 E15.9378
G1 X105.664 Y90.609 E15.96785
G1 X105.797 Y89.716 E15.99788
G1 X106.008 Y88.838 E16.02791
G1 X106.296 Y87.982 E16.05795
G1 X106.658 Y87.155 E16.08797
G1 X107.093 Y86.363 E16.11803
G1 X107.595 Y85.613 E16.14805
G1 X108.162 Y84.91 E16.17809
G1 F2700 E11.17809
G0 F6000 X125.957 Y90.99
G0 X128.4 Y93.65
G1 F2700 E16.17809
G1 F1200 X129.18 Y93.65 E16.20403
G1 X129.18 Y105.05 E16.58319
G1 X128.4 Y105.05 E16.60914
G1 X128.4 Y93.65 E16.9883
G0 F6000 X128 Y93.25
G1 F1200 X129.58 Y93.25 E17.04085
G1 X129.58 Y105.45 E17.44663
G1 X128 Y105.45 E17.49918
G1 X128 Y93.25 E17.90495
G0 F6000 X127.6 Y92.85
G1 F1200 X129.98 Y92.85 E17.98411
G1 X129.98 Y105.85 E18.41649
G1 X127.6 Y105.85 E18.49565
G1 X127.6 Y92.85 E18.92803
G0 F6000 X127.2 Y92.45
G1 F1200 X130.38 Y92.45 E19.0338
G1 X130.38 Y106.25 E19.49279
G1 X127.2 Y106.25 E19.59856
G1 X127.2 Y92.45 E20.05755
G0 F6000 X126.8 Y92.05
G1 F1200 X130.78 Y92.05 E20.18992
G1 X130.78 Y106.65 E20.67552
G1 X126.8 Y106.65 E20.8079
G1 X126.8 Y92.05 E21.29349
G0 F6000 X126.8 Y109.75
G1 F1200 X130.78 Y109.75 E21.42587
G1 X130.78 Y124.35 E21.91147
G1 X126.8 Y124.35 E22.04384
G1 X126.8 Y109.75 E22.52944
G0 F6000 X127.2 Y110.15
G1 F1200 X130.38 Y110.15 E22.63521
G1 X130.38 Y123.95 E23.0942
G1 X127.2 Y123.95 E23.19996
G1 X127.2 Y110.15 E23.65895
G0 F6000 X127.6 Y110.55
G1 F1200 X129.98 Y110.55 E23.73811
G1 X129.98 Y123.55 E24.1705
G1 X127.6 Y123.55 E24.24965
G1 X127.6 Y110.55 E24.68204
G0 F6000 X128 Y110.95
G1 F1200 X129.58 Y110.95 E24.73459
G1 X129.58 Y123.15 E25.14036
G1 X128 Y123.15 E25.19291
G1 X128 Y110.95 E25.59869
G0 F6000 X128.4 Y111.35
G1 F1200 X129.18 Y111.35 E25.62463
G1 X129.18 Y122.75 E26.00379
G1 X128.4 Y122.75 E26.02974
G1 X128.4 Y111.35 E26.4089
G1 F2700 E21.4089
;MESH:corner_body.stl(1)
G0 F6000 X125.386 Y107.315
G0 X125.386 Y106.236
G0 X116.4 Y106.05
;TYPE:WALL-INNER
G1 F2700 E26.4089
G1 F1200 X116.4 Y92.25 E26.86789
G1 X125.2 Y92.251 E27.16058
G1 X125.2 Y106.05 E27.61954
G1 X116.4 Y106.05 E27.91223
G0 F6000 X116 Y106.45
;TYPE:WALL-OUTER
G1 F1200 X116 Y91.85 E28.39783
G1 X125.6 Y91.851 E28.71712
G1 X125.6 Y106.45 E29.20269
G1 X116 Y106.45 E29.52198
G0 F6000 X116.27 Y106.18
G0 X116.51 Y105.66
G0 X116.79 Y105.66
;TYPE:SKIN
G1 F1200 X116.79 Y92.64 E29.95503
G1 X124.81 Y92.641 E30.22178
G1 X124.81 Y105.66 E30.65479
G1 X116.79 Y105.66 E30.92154
G0 F6000 X117.379 Y105.499
G1 F1200 X116.949 Y105.069 E30.94176
G0 F6000 X116.949 Y104.504
G1 F1200 X117.944 Y105.499 E30.98857
G0 F6000 X118.51 Y105.499
G1 F1200 X116.949 Y103.938 E31.06199
G0 F6000 X116.949 Y103.372
G1 F1200 X119.076 Y105.499 E31.16204
G0 F6000 X119.641 Y105.499
G1 F1200 X116.949 Y102.806 E31.28868
G0 F6000 X116.949 Y102.241
G1 F1200 X120.207 Y105.499 E31.44193
G0 F6000 X120.773 Y105.499
G1 F1200 X116.949 Y101.675 E31.6218
G0 F6000 X116.949 Y101.109
G1 F1200 X121.338 Y105.499 E31.82827
G0 F6000 X121.904 Y105.499
G1 F1200 X116.949 Y100.544 E32.06134
G0 F6000 X116.949 Y99.978
G1 F1200 X122.47 Y105.499 E32.32103
G0 F6000 X123.035 Y105.499
G1 F1200 X116.949 Y99.412 E32.60732
G0 F6000 X116.949 Y98.847
G1 F1200 X123.601 Y105.499 E32.92021
G0 F6000 X124.167 Y105.499
G1 F1200 X116.949 Y98.281 E33.25972
G0 F6000 X116.949 Y97.715
G1 F1200 X124.649 Y105.416 E33.62193
G0 F6000 X124.649 Y104.85
G1 F1200 X116.949 Y97.15 E33.98411
G0 F6000 X116.949 Y96.584
G1 F1200 X124.649 Y104.284 E34.3463
G0 F6000 X124.649 Y103.719
G1 F1200 X116.949 Y96.018 E34.70851
G0 F6000 X116.949 Y95.453
G1 F1200 X124.649 Y103.153 E35.07069
G0 F6000 X124.649 Y102.587
G1 F1200 X116.949 Y94.887 E35.43287
G0 F6000 X116.949 Y94.321
G1 F1200 X124.649 Y102.022 E35.79508
G0 F6000 X124.649 Y101.456
G1 F1200 X116.949 Y93.755 E36.15729
G0 F6000 X116.949 Y93.19
G1 F1200 X124.649 Y100.89 E36.51947
G0 F6000 X124.649 Y100.325
G1 F1200 X117.125 Y92.8 E36.8734
G0 F6000 X117.69 Y92.8
G1 F1200 X124.649 Y99.759 E37.20073
G0 F6000 X124.649 Y99.193
G1 F1200 X118.256 Y92.8 E37.50144
G0 F6000 X118.822 Y92.8
G1 F1200 X124.649 Y98.627 E37.77552
G0 F6000 X124.649 Y98.062
G1 F1200 X119.387 Y92.8 E38.02303
G0 F6000 X119.953 Y92.8
G1 F1200 X124.649 Y97.496 E38.24392
G0 F6000 X124.649 Y96.93
G1 F1200 X120.519 Y92.8 E38.43818
G0 F6000 X121.085 Y92.801
G1 F1200 X124.649 Y96.365 E38.60582
G0 F6000 X124.649 Y95.799
G1 F1200 X121.651 Y92.801 E38.74684
G0 F6000 X122.217 Y92.801
G1 F1200 X124.649 Y95.233 E38.86123
G0 F6000 X124.649 Y94.668
G1 F1200 X122.782 Y92.801 E38.94905
G0 F6000 X123.348 Y92.801
G1 F1200 X124.649 Y94.102 E39.01024
G0 F6000 X124.649 Y93.536
G1 F1200 X123.914 Y92.801 E39.04482
G0 F6000 X124.479 Y92.801
G1 F1200 X124.649 Y92.971 E39.05281
G0 F6000 X125 Y92.971
G1 F2700 E34.05281
;MESH:corner_body.stl
G0 F6000 X125.09 Y92.971
G0 X125.018 Y105.868
G0 X116.4 Y106.23
G0 X116.4 Y107.315
G0 X116.398 Y108.685
G0 X116.398 Y109.77
G0 X116.4 Y123.75
;TYPE:WALL-INNER
G1 F2700 E39.05281
G1 F1200 X116.4 Y109.95 E39.5118
G1 X125.2 Y109.951 E39.80449
G1 X125.2 Y123.75 E40.26345
G1 X116.4 Y123.75 E40.55614
G0 F6000 X116 Y124.15
;TYPE:WALL-OUTER
G1 F1200 X116 Y109.55 E41.04174
G1 X125.6 Y109.551 E41.36103
G1 X125.6 Y124.15 E41.8466
G1 X116 Y124.15 E42.16589
G0 F6000 X116.27 Y123.88
G0 X116.51 Y123.36
G0 X116.79 Y123.36
;TYPE:SKIN
G1 F1200 X116.79 Y110.34 E42.59894
G1 X124.81 Y110.341 E42.86569
G1 X124.81 Y123.36 E43.2987
G1 X116.79 Y123.36 E43.56545
G0 F6000 X117.542 Y123.199
G1 F1200 X116.949 Y122.605 E43.59336
G0 F6000 X116.949 Y122.04
G1 F1200 X118.108 Y123.199 E43.64788
G0 F6000 X118.673 Y123.199
G1 F1200 X116.949 Y121.474 E43.729
G0 F6000 X116.949 Y120.908
G1 F1200 X119.239 Y123.199 E43.83673
G0 F6000 X119.805 Y123.199
G1 F1200 X116.949 Y120.343 E43.97107
G0 F6000 X116.949 Y119.777
G1 F1200 X120.37 Y123.199 E44.13201
G0 F6000 X120.936 Y123.199
G1 F1200 X116.949 Y119.211 E44.31957
G0 F6000 X116.949 Y118.646
G1 F1200 X121.502 Y123.199 E44.53373
