;FLAVOR:Marlin
;TIME:590
;Filament used: 0.414835m
;Layer height: 0.2
;MINX:98.265
;MINY:98.296
;MINZ:0.2
;MAXX:136.735
;MAXY:136.704
;MAXZ:5.6
;Generated with Cura_SteamEngine 4.13.1
M140 S60
M105
M190 S60
M104 S200
M105
M109 S200
M82 ;absolute extrusion mode
; Ender 3 Custom Start G-code
G92 E0 ; Reset Extruder
G28 ; Home all axes
G1 Z2.0 F3000 ; Move Z Axis up little to prevent scratching of Heat Bed
G1 X0.1 Y20 Z0.3 F5000.0 ; Move to start position
G1 X0.1 Y200.0 Z0.3 F1500.0 E15 ; Draw the first line
G1 X0.4 Y200.0 Z0.3 F5000.0 ; Move to side a little
G1 X0.4 Y20 Z0.3 F1500.0 E30 ; Draw the second line
G92 E0 ; Reset Extruder
G1 Z2.0 F3000 ; Move Z Axis up little to prevent scratching of Heat Bed
G1 X5 Y20 Z0.3 F5000.0 ; Move over to prevent blob squish
G92 E0
G92 E0
G1 F2700 E-5
;LAYER_COUNT:28
;LAYER:0
M107
G0 F6000 X103.874 Y103.946 Z0.2
;TYPE:SKIRT
G1 F2700 E0
G1 F1200 X104.54 Y103.285 E0.03121
G1 X105.317 Y102.64 E0.0648
G1 X106.176 Y101.991 E0.1006
G1 X106.472 Y101.776 E0.11277
G1 X107 Y101.404 E0.13425
G1 X107.789 Y100.897 E0.16545
G1 X108.665 Y100.437 E0.19836
G1 X109.646 Y99.977 E0.23439
G1 X109.993 Y99.821 E0.24705
G1 X110.585 Y99.568 E0.26846
G1 X111.463 Y99.237 E0.29967
G1 X112.405 Y98.972 E0.33222
G1 X113.372 Y98.746 E0.36525
G1 X113.712 Y98.672 E0.37682
G1 X114.415 Y98.531 E0.40067
G1 X115.341 Y98.386 E0.43184
G1 X116.364 Y98.318 E0.46594
G1 X117.441 Y98.297 E0.50177
G1 X117.808 Y98.296 E0.51397
G1 X118.454 Y98.305 E0.53546
G1 X119.391 Y98.358 E0.56668
G1 X120.375 Y98.501 E0.59975
G1 X121.448 Y98.707 E0.63609
G1 X121.839 Y98.79 E0.64938
G1 X122.461 Y98.933 E0.67061
G1 X123.365 Y99.182 E0.7018
G1 X124.259 Y99.513 E0.73351
G1 X125.201 Y99.909 E0.76749
G1 X125.532 Y100.054 E0.77951
G1 X126.163 Y100.344 E0.80261
G1 X126.997 Y100.772 E0.83379
G1 X127.867 Y101.32 E0.86799
G1 X128.732 Y101.924 E0.90308
G1 X129.039 Y102.147 E0.9157
G1 X129.573 Y102.548 E0.93791
G1 X130.299 Y103.143 E0.96913
G1 X130.991 Y103.818 E1.00128
G1 X131.733 Y104.609 E1.03735
G1 X132.002 Y104.907 E1.0507
G1 X132.423 Y105.39 E1.07201
G1 X133.009 Y106.123 E1.10323
G1 X133.546 Y106.93 E1.13547
G1 X134.1 Y107.847 E1.1711
G1 X134.282 Y108.159 E1.18311
G1 X134.594 Y108.716 E1.20435
G1 X135.017 Y109.553 E1.23554
G1 X135.388 Y110.483 E1.26884
G1 X135.745 Y111.511 E1.30504
G1 X135.864 Y111.872 E1.31768
G1 X136.055 Y112.49 E1.33919
G1 X136.293 Y113.397 E1.37038
G1 X136.461 Y114.383 E1.40365
G1 X136.592 Y115.438 E1.43901
G1 X136.631 Y115.8 E1.45112
G1 X136.69 Y116.451 E1.47286
G1 X136.735 Y117.388 E1.50406
G1 X136.694 Y118.391 E1.53745
G1 X136.598 Y119.502 E1.57454
G1 X136.563 Y119.85 E1.58617
G1 X136.492 Y120.449 E1.60623
G1 X136.342 Y121.375 E1.63743
G1 X136.094 Y122.347 E1.6708
G1 X135.787 Y123.359 E1.70597
G1 X135.673 Y123.714 E1.71837
G1 X135.459 Y124.342 E1.74044
G1 X135.119 Y125.216 E1.77163
G1 X134.677 Y126.111 E1.80483
G1 X134.142 Y127.08 E1.84165
G1 X133.955 Y127.404 E1.85409
G1 X133.636 Y127.938 E1.87478
G1 X133.121 Y128.722 E1.90598
G1 X132.511 Y129.495 E1.93873
G1 X131.804 Y130.312 E1.97466
G1 X131.56 Y130.585 E1.98684
G1 X131.126 Y131.054 E2.00809
G1 X130.46 Y131.715 E2.0393
G1 X129.683 Y132.36 E2.07289
G1 X128.824 Y133.009 E2.1087
G1 X128.526 Y133.226 E2.12096
G1 X128.002 Y133.595 E2.14228
G1 X127.213 Y134.102 E2.17347
G1 X126.348 Y134.556 E2.20596
G1 X125.363 Y135.019 E2.24216
G1 X125.003 Y135.181 E2.25529
G1 X124.408 Y135.435 E2.27681
G1 X123.53 Y135.766 E2.30802
G1 X122.589 Y136.03 E2.34052
G1 X121.625 Y136.255 E2.37345
G1 X121.288 Y136.328 E2.38492
G1 X120.585 Y136.469 E2.40876
G1 X119.659 Y136.614 E2.43994
G1 X118.636 Y136.682 E2.47404
G1 X117.559 Y136.703 E2.50987
G1 X117.192 Y136.704 E2.52207
G1 X116.546 Y136.695 E2.54356
G1 X115.609 Y136.642 E2.57478
G1 X114.625 Y136.499 E2.60785
G1 X113.552 Y136.293 E2.64419
G1 X113.161 Y136.21 E2.65748
G1 X112.539 Y136.067 E2.67871
G1 X111.635 Y135.818 E2.7099
G1 X110.726 Y135.481 E2.74214
G1 X109.731 Y135.061 E2.77806
G1 X109.41 Y134.92 E2.78972
G1 X108.832 Y134.654 E2.81088
G1 X107.998 Y134.226 E2.84206
G1 X107.133 Y133.68 E2.87609
G1 X106.268 Y133.076 E2.91117
G1 X105.961 Y132.853 E2.9238
G1 X105.427 Y132.452 E2.94601
G1 X104.701 Y131.857 E2.97723
G1 X104.009 Y131.182 E3.00938
G1 X103.267 Y130.391 E3.04545
G1 X102.998 Y130.093 E3.0588
G1 X102.577 Y129.61 E3.08011
G1 X101.991 Y128.877 E3.11133
G1 X101.454 Y128.07 E3.14357
G1 X100.9 Y127.153 E3.1792
G1 X100.718 Y126.841 E3.19121
G1 X100.406 Y126.284 E3.21245
G1 X99.983 Y125.447 E3.24364
G1 X99.612 Y124.517 E3.27694
G1 X99.255 Y123.489 E3.31314
G1 X99.136 Y123.128 E3.32578
G1 X98.945 Y122.51 E3.34729
G1 X98.707 Y121.603 E3.37848
G1 X98.539 Y120.617 E3.41175
G1 X98.408 Y119.562 E3.44711
G1 X98.369 Y119.2 E3.45922
G1 X98.31 Y118.549 E3.48096
G1 X98.265 Y117.612 E3.51216
G1 X98.306 Y116.609 E3.54555
G1 X98.402 Y115.498 E3.58264
G1 X98.437 Y115.152 E3.5942
G1 X98.508 Y114.552 E3.6143
G1 X98.658 Y113.627 E3.64547
G1 X98.907 Y112.649 E3.67903
G1 X99.214 Y111.638 E3.71418
G1 X99.327 Y111.286 E3.72647
G1 X99.541 Y110.658 E3.74854
G1 X99.881 Y109.784 E3.77973
G1 X100.323 Y108.889 E3.81293
G1 X100.858 Y107.92 E3.84974
G1 X101.045 Y107.596 E3.86219
G1 X101.364 Y107.062 E3.88288
G1 X101.879 Y106.278 E3.91407
G1 X102.489 Y105.505 E3.94683
G1 X103.196 Y104.688 E3.98276
G1 X103.44 Y104.415 E3.99494
G1 X103.874 Y103.946 E4.01619
G0 F6000 X104.168 Y104.218
G1 F1200 X104.822 Y103.57 E4.04681
G1 X105.558 Y102.96 E4.07861
G1 X106.417 Y102.311 E4.11442
G1 X106.702 Y102.103 E4.12615
G1 X107.23 Y101.731 E4.14763
G1 X108.005 Y101.234 E4.17825
G1 X108.835 Y100.799 E4.20942
G1 X109.816 Y100.339 E4.24546
G1 X110.15 Y100.189 E4.25764
G1 X110.742 Y99.936 E4.27905
G1 X111.604 Y99.611 E4.30969
G1 X112.496 Y99.361 E4.3405
G1 X113.463 Y99.135 E4.37353
G1 X113.79 Y99.064 E4.38466
G1 X114.493 Y98.923 E4.40851
G1 X115.403 Y98.781 E4.43914
G1 X116.371 Y98.718 E4.4714
G1 X117.448 Y98.697 E4.50723
G1 X117.803 Y98.696 E4.51904
G1 X118.449 Y98.705 E4.54053
G1 X119.368 Y98.758 E4.57115
G1 X120.3 Y98.894 E4.60247
G1 X121.373 Y99.1 E4.63881
G1 X121.749 Y99.179 E4.65159
G1 X122.371 Y99.322 E4.67282
G1 X123.258 Y99.568 E4.70343
G1 X124.104 Y99.881 E4.73344
G1 X125.046 Y100.277 E4.76742
G1 X125.365 Y100.417 E4.77901
G1 X125.996 Y100.707 E4.80211
G1 X126.815 Y101.128 E4.83274
G1 X127.638 Y101.648 E4.86511
G1 X128.503 Y102.252 E4.9002
G1 X128.799 Y102.467 E4.91237
G1 X129.333 Y102.868 E4.93458
G1 X130.045 Y103.452 E4.96521
G1 X130.699 Y104.092 E4.99565
G1 X131.441 Y104.883 E5.03172
G1 X131.701 Y105.17 E5.0446
G1 X132.122 Y105.653 E5.06591
G1 X132.696 Y106.373 E5.09654
G1 X133.204 Y107.137 E5.12705
G1 X133.758 Y108.054 E5.16268
G1 X133.933 Y108.355 E5.17426
G1 X134.245 Y108.912 E5.1955
G1 X134.66 Y109.734 E5.22613
G1 X135.01 Y110.615 E5.25766
G1 X135.367 Y111.643 E5.29385
G1 X135.481 Y111.99 E5.306
G1 X135.672 Y112.608 E5.32751
G1 X135.906 Y113.499 E5.35815
G1 X136.064 Y114.432 E5.38962
G1 X136.195 Y115.487 E5.42498
G1 X136.233 Y115.836 E5.43666
G1 X136.292 Y116.487 E5.4584
G1 X136.335 Y117.407 E5.48903
G1 X136.296 Y118.357 E5.52066
G1 X136.2 Y119.468 E5.55775
G1 X136.165 Y119.803 E5.56895
G1 X136.094 Y120.402 E5.58901
G1 X135.946 Y121.31 E5.61961
G1 X135.712 Y122.231 E5.65122
G1 X135.405 Y123.243 E5.68639
G1 X135.294 Y123.585 E5.69835
G1 X135.08 Y124.213 E5.72042
G1 X134.746 Y125.071 E5.75104
G1 X134.327 Y125.917 E5.78244
G1 X133.792 Y126.886 E5.81926
G1 X133.612 Y127.199 E5.83126
G1 X133.293 Y127.733 E5.85195
G1 X132.787 Y128.502 E5.88257
G1 X132.208 Y129.233 E5.91359
G1 X131.501 Y130.05 E5.94952
G1 X131.266 Y130.313 E5.96125
G1 X130.832 Y130.782 E5.98251
G1 X130.178 Y131.43 E6.01313
G1 X129.442 Y132.04 E6.04492
G1 X128.583 Y132.689 E6.08073
G1 X128.296 Y132.899 E6.09256
G1 X127.772 Y133.268 E6.11387
G1 X126.997 Y133.765 E6.1445
G1 X126.178 Y134.194 E6.17525
G1 X125.193 Y134.657 E6.21145
G1 X124.846 Y134.813 E6.2241
G1 X124.251 Y135.067 E6.24562
G1 X123.389 Y135.391 E6.27625
G1 X122.498 Y135.641 E6.30703
G1 X121.534 Y135.866 E6.33995
G1 X121.21 Y135.936 E6.35097
G1 X120.507 Y136.077 E6.37482
G1 X119.597 Y136.219 E6.40546
G1 X118.629 Y136.282 E6.43772
G1 X117.552 Y136.303 E6.47355
G1 X117.197 Y136.304 E6.48535
G1 X116.551 Y136.295 E6.50684
G1 X115.632 Y136.242 E6.53746
G1 X114.7 Y136.106 E6.56879
G1 X113.627 Y135.9 E6.60513
G1 X113.251 Y135.821 E6.6179
G1 X112.629 Y135.678 E6.63913
G1 X111.742 Y135.432 E6.66975
G1 X110.882 Y135.113 E6.70026
G1 X109.887 Y134.693 E6.73618
G1 X109.578 Y134.556 E6.74742
G1 X109 Y134.29 E6.76858
G1 X108.181 Y133.869 E6.79921
G1 X107.362 Y133.352 E6.83142
G1 X106.497 Y132.748 E6.86651
G1 X106.201 Y132.533 E6.87868
G1 X105.667 Y132.132 E6.90089
G1 X104.955 Y131.548 E6.93152
G1 X104.301 Y130.908 E6.96196
G1 X103.559 Y130.117 E6.99803
G1 X103.299 Y129.83 E7.01091
G1 X102.878 Y129.347 E7.03222
G1 X102.304 Y128.627 E7.06284
G1 X101.796 Y127.863 E7.09336
G1 X101.242 Y126.946 E7.12899
G1 X101.067 Y126.645 E7.14057
G1 X100.755 Y126.088 E7.16181
G1 X100.34 Y125.266 E7.19243
G1 X99.99 Y124.385 E7.22396
G1 X99.633 Y123.357 E7.26016
G1 X99.519 Y123.01 E7.27231
G1 X99.328 Y122.392 E7.29382
G1 X99.094 Y121.501 E7.32446
G1 X98.936 Y120.568 E7.35593
G1 X98.805 Y119.513 E7.39129
G1 X98.767 Y119.164 E7.40297
G1 X98.708 Y118.513 E7.42471
G1 X98.665 Y117.593 E7.45534
G1 X98.704 Y116.643 E7.48697
G1 X98.8 Y115.532 E7.52406
G1 X98.834 Y115.199 E7.53519
G1 X98.905 Y114.599 E7.55529
G1 X99.053 Y113.691 E7.58588
G1 X99.289 Y112.765 E7.61767
G1 X99.596 Y111.754 E7.65281
G1 X99.706 Y111.415 E7.66466
G1 X99.92 Y110.787 E7.68673
G1 X100.254 Y109.929 E7.71735
G1 X100.673 Y109.083 E7.74875
G1 X101.208 Y108.114 E7.78557
G1 X101.388 Y107.801 E7.79758
G1 X101.707 Y107.267 E7.81827
G1 X102.213 Y106.498 E7.84888
G1 X102.792 Y105.767 E7.8799
G1 X103.499 Y104.95 E7.91583
G1 X103.734 Y104.687 E7.92757
G1 X104.168 Y104.218 E7.94882
G0 F6000 X104.462 Y104.489
G1 F1200 X105.104 Y103.854 E7.97885
G1 X105.799 Y103.279 E8.00885
G1 X106.658 Y102.63 E8.04466
G1 X106.932 Y102.43 E8.05594
G1 X107.46 Y102.058 E8.07743
G1 X108.221 Y101.571 E8.10748
G1 X109.005 Y101.161 E8.1369
G1 X109.986 Y100.701 E8.17294
G1 X110.308 Y100.557 E8.18467
G1 X110.9 Y100.304 E8.20609
G1 X111.745 Y99.986 E8.23611
G1 X112.587 Y99.751 E8.26519
G1 X113.554 Y99.525 E8.29822
G1 X113.869 Y99.456 E8.30894
G1 X114.572 Y99.315 E8.33279
G1 X115.465 Y99.177 E8.36285
G1 X116.379 Y99.118 E8.39331
G1 X117.456 Y99.097 E8.42914
G1 X117.797 Y99.096 E8.44048
G1 X118.443 Y99.105 E8.46197
G1 X119.345 Y99.158 E8.49202
G1 X120.224 Y99.287 E8.52157
G1 X121.297 Y99.493 E8.55791
G1 X121.659 Y99.569 E8.57021
G1 X122.281 Y99.712 E8.59144
G1 X123.152 Y99.953 E8.6215
G1 X123.949 Y100.25 E8.64978
G1 X124.891 Y100.646 E8.68377
G1 X125.197 Y100.781 E8.6949
G1 X125.828 Y101.071 E8.71799
G1 X126.632 Y101.484 E8.74806
G1 X127.409 Y101.976 E8.77864
G1 X128.274 Y102.58 E8.81373
G1 X128.559 Y102.787 E8.82545
G1 X129.093 Y103.188 E8.84766
G1 X129.79 Y103.761 E8.87767
G1 X130.407 Y104.366 E8.90641
G1 X131.149 Y105.157 E8.94248
G1 X131.399 Y105.433 E8.95487
G1 X131.82 Y105.916 E8.97618
G1 X132.383 Y106.622 E9.00622
G1 X132.861 Y107.344 E9.03501
G1 X133.415 Y108.261 E9.07065
G1 X133.584 Y108.55 E9.08178
G1 X133.896 Y109.107 E9.10302
G1 X134.302 Y109.914 E9.13306
G1 X134.633 Y110.746 E9.16285
G1 X134.99 Y111.774 E9.19904
G1 X135.099 Y112.108 E9.21073
G1 X135.29 Y112.726 E9.23224
G1 X135.518 Y113.6 E9.26228
G1 X135.667 Y114.481 E9.292
G1 X135.798 Y115.536 E9.32736
G1 X135.834 Y115.872 E9.3386
G1 X135.893 Y116.523 E9.36034
G1 X135.935 Y117.425 E9.39037
G1 X135.897 Y118.322 E9.42023
G1 X135.801 Y119.433 E9.45732
G1 X135.768 Y119.756 E9.46812
G1 X135.697 Y120.355 E9.48818
G1 X135.551 Y121.246 E9.51821
G1 X135.329 Y122.115 E9.54805
G1 X135.022 Y123.127 E9.58322
G1 X134.916 Y123.456 E9.59472
G1 X134.702 Y124.084 E9.61678
G1 X134.373 Y124.925 E9.64682
G1 X133.976 Y125.724 E9.67649
G1 X133.441 Y126.693 E9.71331
G1 X133.269 Y126.994 E9.72484
G1 X132.95 Y127.528 E9.74553
G1 X132.453 Y128.282 E9.77556
G1 X131.906 Y128.972 E9.80485
G1 X131.199 Y129.789 E9.84079
G1 X130.972 Y130.042 E9.85209
G1 X130.538 Y130.511 E9.87334
G1 X129.896 Y131.146 E9.90338
G1 X129.201 Y131.721 E9.93338
G1 X128.342 Y132.37 E9.96919
G1 X128.066 Y132.572 E9.98056
G1 X127.542 Y132.941 E10.00188
G1 X126.781 Y133.427 E10.03191
G1 X126.008 Y133.832 E10.06094
G1 X125.023 Y134.295 E10.09714
G1 X124.689 Y134.445 E10.10931
G1 X124.094 Y134.699 E10.13083
G1 X123.248 Y135.016 E10.16088
G1 X122.407 Y135.251 E10.18992
G1 X121.443 Y135.476 E10.22285
G1 X121.131 Y135.544 E10.23347
G1 X120.428 Y135.685 E10.25732
G1 X119.535 Y135.823 E10.28737
G1 X118.621 Y135.882 E10.31783
G1 X117.544 Y135.903 E10.35366
G1 X117.203 Y135.904 E10.365
G1 X116.557 Y135.895 E10.38649
G1 X115.655 Y135.842 E10.41654
G1 X114.776 Y135.713 E10.44609
G1 X113.703 Y135.507 E10.48243
G1 X113.341 Y135.431 E10.49473
G1 X112.719 Y135.288 E10.51596
G1 X111.848 Y135.047 E10.54602
G1 X111.037 Y134.744 E10.57482
G1 X110.042 Y134.324 E10.61074
G1 X109.745 Y134.193 E10.62153
G1 X109.167 Y133.927 E10.6427
G1 X108.364 Y133.513 E10.67274
G1 X107.591 Y133.024 E10.70317
G1 X106.726 Y132.42 E10.73826
G1 X106.441 Y132.213 E10.74997
G1 X105.907 Y131.812 E10.77218
G1 X105.21 Y131.239 E10.80219
G1 X104.593 Y130.634 E10.83093
G1 X103.851 Y129.843 E10.86701
G1 X103.601 Y129.567 E10.87939
G1 X103.18 Y129.084 E10.9007
G1 X102.617 Y128.378 E10.93074
G1 X102.139 Y127.656 E10.95954
G1 X101.585 Y126.739 E10.99517
G1 X101.416 Y126.45 E11.00631
G1 X101.104 Y125.893 E11.02754
G1 X100.698 Y125.086 E11.05759
G1 X100.367 Y124.254 E11.08737
G1 X100.01 Y123.226 E11.12356
G1 X99.901 Y122.892 E11.13525
G1 X99.71 Y122.274 E11.15676
G1 X99.482 Y121.4 E11.1868
G1 X99.333 Y120.519 E11.21652
G1 X99.202 Y119.464 E11.25188
G1 X99.166 Y119.128 E11.26312
G1 X99.107 Y118.477 E11.28486
G1 X99.065 Y117.575 E11.3149
G1 X99.103 Y116.678 E11.34476
G1 X99.199 Y115.567 E11.38185
G1 X99.232 Y115.246 E11.39258
G1 X99.303 Y114.646 E11.41267
G1 X99.448 Y113.755 E11.4427
G1 X99.672 Y112.881 E11.47271
G1 X99.979 Y111.87 E11.50785
G1 X100.084 Y111.544 E11.51924
G1 X100.298 Y110.916 E11.54131
G1 X100.627 Y110.075 E11.57134
G1 X101.024 Y109.276 E11.60102
G1 X101.559 Y108.307 E11.63783
G1 X101.731 Y108.006 E11.64936
G1 X102.05 Y107.472 E11.67005
G1 X102.547 Y106.718 E11.70009
G1 X103.094 Y106.028 E11.72937
G1 X103.801 Y105.211 E11.76531
G1 X104.028 Y104.958 E11.77662
G1 X104.462 Y104.489 E11.79787
G1 F2700 E6.79787
;MESH:bearing.stl
G0 F6000 X116.423 Y116.714
G0 X115.239 Y115.856
G0 X115.058 Y117.5
G0 X115.111 Y118.008
G0 X115.269 Y118.493
G0 X115.524 Y118.935
G0 X115.868 Y119.315
G0 X116.106 Y119.485
G0 X117.237 Y120.089
;TYPE:WALL-INNER
G1 F2700 E11.79787
G1 F1200 X117.78 Y120.088 E11.81593
G1 X118.306 Y119.975 E11.83382
G1 X118.809 Y119.75 E11.85215
G1 X119.242 Y119.434 E11.86998
G1 X119.606 Y119.031 E11.88804
G1 X119.878 Y118.558 E11.90619
G1 X120.046 Y118.042 E11.92424
G1 X120.103 Y117.5 E11.94236
G1 X120.046 Y116.958 E11.96049
G1 X119.878 Y116.442 E11.97854
G1 X119.606 Y115.969 E11.99669
G1 X119.24 Y115.564 E12.01484
G1 X118.793 Y115.242 E12.03317
G1 X118.304 Y115.024 E12.05097
G1 X117.763 Y114.911 E12.06936
G1 X117.22 Y114.912 E12.08742
G1 X116.694 Y115.025 E12.10531
G1 X116.191 Y115.25 E12.12364
G1 X115.758 Y115.566 E12.14147
G1 X115.394 Y115.969 E12.15953
G1 X115.122 Y116.442 E12.17768
G1 X114.954 Y116.958 E12.19572
G1 X114.897 Y117.5 E12.21385
G1 X114.954 Y118.042 E12.23198
G1 X115.122 Y118.558 E12.25003
G1 X115.394 Y119.031 E12.26817
G1 X115.76 Y119.436 E12.28633
G1 X116.207 Y119.758 E12.30465
G1 X116.696 Y119.976 E12.32246
G1 X117.237 Y120.089 E12.34084
G0 F6000 X117.278 Y119.689
;TYPE:WALL-OUTER
G1 F1200 X117.737 Y119.688 E12.35611
G1 X118.181 Y119.593 E12.37121
G1 X118.607 Y119.402 E12.38674
G1 X118.973 Y119.135 E12.40181
G1 X119.281 Y118.794 E12.41709
G1 X119.511 Y118.395 E12.43241
G1 X119.653 Y117.958 E12.44769
G1 X119.701 Y117.5 E12.46301
G1 X119.653 Y117.042 E12.47832
G1 X119.511 Y116.605 E12.49361
G1 X119.281 Y116.206 E12.50892
G1 X118.972 Y115.864 E12.52425
G1 X118.593 Y115.591 E12.53979
G1 X118.18 Y115.407 E12.55483
G1 X117.722 Y115.311 E12.57039
