;FLAVOR:Marlin
;TIME:8240
;Filament used: 5.41906m
;Layer height: 0.2
;MINX:73.75
;MINY:86.5
;MINZ:0.2
;MAXX:161.25
;MAXY:148.5
;MAXZ:44.4
;Generated with Cura_SteamEngine 4.13.1
M140 S60
M105
M190 S60
M104 S200
M105
M109 S200
M82 ;absolute extrusion mode
; Ender 3 Custom Start G-code
G92 E0 ; Reset Extruder
G28 ; Home all axes
G1 Z2.0 F3000 ; Move Z Axis up little to prevent scratching of Heat Bed
G1 X0.1 Y20 Z0.3 F5000.0 ; Move to start position
G1 X0.1 Y200.0 Z0.3 F1500.0 E15 ; Draw the first line
G1 X0.4 Y200.0 Z0.3 F5000.0 ; Move to side a little
G1 X0.4 Y20 Z0.3 F1500.0 E30 ; Draw the second line
G92 E0 ; Reset Extruder
G1 Z2.0 F3000 ; Move Z Axis up little to prevent scratching of Heat Bed
G1 X5 Y20 Z0.3 F5000.0 ; Move over to prevent blob squish
G92 E0
G92 E0
G1 F2700 E-5
;LAYER_COUNT:223
;LAYER:0
M107
G0 F6000 X77.636 Y89.127 Z0.2
;TYPE:SKIRT
G1 F2700 E0
G1 F1200 X78.376 Y88.551 E0.03119
G1 X79.162 Y88.039 E0.06239
G1 X79.989 Y87.597 E0.09358
G1 X80.851 Y87.227 E0.12478
G1 X81.741 Y86.931 E0.15597
G1 X82.653 Y86.713 E0.18716
G1 X83.58 Y86.572 E0.21835
G1 X84.451 Y86.513 E0.24738
G1 X84.772 Y86.504 E0.25806
G1 X85.08 Y86.5 E0.26831
G1 X149.543 Y86.5 E2.41236
G1 X150.399 Y86.511 E2.44083
G1 X151.335 Y86.565 E2.47201
G1 X152.263 Y86.697 E2.50319
G1 X153.177 Y86.909 E2.5344
G1 X154.069 Y87.198 E2.56558
G1 X154.934 Y87.561 E2.59678
G1 X155.764 Y87.997 E2.62797
G1 X156.555 Y88.502 E2.65918
G1 X157.299 Y89.073 E2.69037
G1 X157.992 Y89.705 E2.72157
G1 X158.629 Y90.393 E2.75275
G1 X159.204 Y91.134 E2.78395
G1 X159.715 Y91.92 E2.81513
G1 X160.157 Y92.748 E2.84635
G1 X160.526 Y93.61 E2.87753
G1 X160.821 Y94.5 E2.90872
G1 X161.039 Y95.412 E2.93991
G1 X161.179 Y96.34 E2.97112
G1 X161.237 Y97.201 E2.99982
G1 X161.246 Y97.521 E3.01047
G1 X161.25 Y97.83 E3.02075
G1 X161.249 Y136.9 E4.32022
G1 X161.24 Y137.627 E4.34441
G1 X161.189 Y138.564 E4.37562
G1 X161.057 Y139.492 E4.40679
G1 X160.848 Y140.406 E4.43798
G1 X160.561 Y141.299 E4.46917
G1 X160.199 Y142.165 E4.50039
G1 X159.765 Y142.996 E4.53157
G1 X159.261 Y143.787 E4.56277
G1 X158.692 Y144.532 E4.59395
G1 X158.061 Y145.227 E4.62517
G1 X157.374 Y145.865 E4.65635
G1 X156.635 Y146.442 E4.68754
G1 X155.849 Y146.954 E4.71874
G1 X155.023 Y147.397 E4.74991
G1 X154.161 Y147.769 E4.78114
G1 X153.272 Y148.065 E4.8123
G1 X152.36 Y148.285 E4.84351
G1 X151.433 Y148.426 E4.87469
G1 X150.549 Y148.487 E4.90416
G1 X150.228 Y148.496 E4.91485
G1 X149.92 Y148.5 E4.92509
G1 X85.315 Y148.499 E7.07386
G1 X84.617 Y148.49 E7.09708
G1 X83.681 Y148.438 E7.12826
G1 X82.752 Y148.306 E7.15947
G1 X81.838 Y148.096 E7.19066
G1 X80.945 Y147.809 E7.22186
G1 X80.08 Y147.446 E7.25306
G1 X79.249 Y147.012 E7.28424
G1 X78.458 Y146.508 E7.31543
G1 X77.713 Y145.938 E7.34663
G1 X77.019 Y145.307 E7.37783
G1 X76.382 Y144.62 E7.40899
G1 X75.805 Y143.88 E7.4402
G1 X75.293 Y143.094 E7.4714
G1 X74.85 Y142.267 E7.50261
G1 X74.479 Y141.406 E7.53379
G1 X74.183 Y140.516 E7.56498
G1 X73.964 Y139.604 E7.59618
G1 X73.823 Y138.677 E7.62737
G1 X73.763 Y137.788 E7.657
G1 X73.754 Y137.455 E7.66808
G1 X73.75 Y137.158 E7.67796
G1 X73.751 Y98.025 E8.97953
G1 X73.76 Y97.36 E9.00165
G1 X73.813 Y96.424 E9.03283
G1 X73.945 Y95.495 E9.06404
G1 X74.156 Y94.581 E9.09524
G1 X74.444 Y93.689 E9.12641
G1 X74.807 Y92.824 E9.15762
G1 X75.242 Y91.993 E9.18881
G1 X75.746 Y91.203 E9.21998
G1 X76.316 Y90.458 E9.25118
G1 X76.948 Y89.764 E9.2824
G1 X77.636 Y89.127 E9.31358
G0 F6000 X78.024 Y89.323
G1 F1200 X78.76 Y88.77 E9.3442
G1 X79.541 Y88.282 E9.37483
G1 X80.361 Y87.864 E9.40545
G1 X81.215 Y87.519 E9.43608
G1 X82.095 Y87.249 E9.4667
G1 X82.995 Y87.057 E9.4973
G1 X83.909 Y86.943 E9.52794
G1 X84.462 Y86.913 E9.54636
G1 X84.783 Y86.904 E9.55704
G1 X85.08 Y86.9 E9.56692
G1 X149.543 Y86.9 E11.71097
G1 X150.393 Y86.911 E11.73924
G1 X151.312 Y86.964 E11.76986
G1 X152.223 Y87.097 E11.80048
G1 X153.119 Y87.308 E11.83109
G1 X153.993 Y87.596 E11.8617
G1 X154.84 Y87.959 E11.89235
G1 X155.651 Y88.394 E11.92296
G1 X156.421 Y88.898 E11.95357
G1 X157.145 Y89.467 E11.9842
G1 X157.817 Y90.097 E12.01483
G1 X158.432 Y90.782 E12.04545
G1 X158.985 Y91.518 E12.07607
G1 X159.472 Y92.299 E12.10668
G1 X159.889 Y93.12 E12.13731
G1 X160.234 Y93.974 E12.16794
G1 X160.503 Y94.854 E12.19855
G1 X160.695 Y95.755 E12.22919
G1 X160.808 Y96.668 E12.25979
G1 X160.837 Y97.212 E12.27791
G1 X160.846 Y97.532 E12.28855
G1 X160.85 Y97.83 E12.29847
G1 X160.849 Y136.895 E13.59777
G1 X160.84 Y137.622 E13.62196
G1 X160.789 Y138.541 E13.65257
G1 X160.658 Y139.453 E13.68321
G1 X160.448 Y140.349 E13.71382
G1 X160.162 Y141.224 E13.74444
G1 X159.801 Y142.071 E13.77506
G1 X159.367 Y142.883 E13.80569
G1 X158.865 Y143.655 E13.83631
G1 X158.297 Y144.38 E13.86695
G1 X157.669 Y145.053 E13.89756
G1 X156.985 Y145.669 E13.92818
G1 X156.25 Y146.223 E13.95879
G1 X155.47 Y146.712 E13.98941
G1 X154.65 Y147.131 E14.02004
G1 X153.797 Y147.477 E14.05065
G1 X152.917 Y147.748 E14.08128
G1 X152.017 Y147.941 E14.11189
G1 X151.103 Y148.056 E14.14253
G1 X150.538 Y148.087 E14.16135
G1 X150.217 Y148.096 E14.17204
G1 X149.92 Y148.1 E14.18191
G1 X85.32 Y148.099 E16.33052
G1 X84.622 Y148.09 E16.35374
G1 X83.703 Y148.038 E16.38435
G1 X82.792 Y147.907 E16.41496
G1 X81.896 Y147.697 E16.44557
G1 X81.021 Y147.41 E16.4762
G1 X80.174 Y147.048 E16.50684
G1 X79.362 Y146.614 E16.53746
G1 X78.591 Y146.112 E16.56806
G1 X77.866 Y145.544 E16.59869
G1 X77.193 Y144.915 E16.62933
G1 X76.578 Y144.231 E16.65992
G1 X76.024 Y143.496 E16.69054
G1 X75.536 Y142.715 E16.72117
G1 X75.117 Y141.895 E16.75179
G1 X74.771 Y141.042 E16.78241
G1 X74.501 Y140.162 E16.81303
G1 X74.308 Y139.261 E16.84367
G1 X74.194 Y138.348 E16.87428
G1 X74.163 Y137.777 E16.8933
G1 X74.154 Y137.444 E16.90437
G1 X74.15 Y137.158 E16.91389
G1 X74.151 Y98.031 E18.21526
G1 X74.16 Y97.366 E18.23738
G1 X74.212 Y96.446 E18.26803
G1 X74.344 Y95.535 E18.29864
G1 X74.555 Y94.639 E18.32926
G1 X74.842 Y93.764 E18.35989
G1 X75.205 Y92.918 E18.39051
G1 X75.639 Y92.106 E18.42113
G1 X76.142 Y91.335 E18.45175
G1 X76.711 Y90.611 E18.48237
G1 X77.339 Y89.939 E18.51297
G1 X78.024 Y89.323 E18.54361
G0 F6000 X78.412 Y89.524
G1 F1200 X79.144 Y88.994 E18.57366
G1 X79.919 Y88.531 E18.60369
G1 X80.732 Y88.138 E18.63372
G1 X81.577 Y87.818 E18.66378
G1 X82.446 Y87.575 E18.69379
G1 X83.334 Y87.409 E18.72384
G1 X84.473 Y87.313 E18.76185
G1 X84.794 Y87.304 E18.77253
G1 X85.08 Y87.3 E18.78205
G1 X149.543 Y87.3 E20.92609
G1 X150.387 Y87.311 E20.95417
G1 X151.289 Y87.364 E20.98422
G1 X152.182 Y87.496 E21.01425
G1 X153.06 Y87.707 E21.04428
G1 X153.916 Y87.995 E21.07432
G1 X154.743 Y88.357 E21.10434
G1 X155.535 Y88.792 E21.1344
G1 X156.286 Y89.294 E21.16444
G1 X156.989 Y89.861 E21.19448
G1 X157.639 Y90.488 E21.22452
G1 X158.231 Y91.17 E21.25456
G1 X158.761 Y91.901 E21.28459
G1 X159.223 Y92.677 E21.31463
G1 X159.616 Y93.49 E21.34466
G1 X159.934 Y94.335 E21.37469
G1 X160.177 Y95.205 E21.40473
G1 X160.342 Y96.093 E21.43477
G1 X160.437 Y97.223 E21.47249
G1 X160.446 Y97.543 E21.48314
G1 X160.45 Y97.83 E21.49268
G1 X160.449 Y136.89 E22.79182
G1 X160.44 Y137.617 E22.81601
G1 X160.389 Y138.519 E22.84606
G1 X160.258 Y139.413 E22.87611
G1 X160.049 Y140.291 E22.90613
G1 X159.763 Y141.148 E22.93618
G1 X159.402 Y141.976 E22.96622
G1 X158.97 Y142.768 E22.99622
G1 X158.469 Y143.52 E23.02628
G1 X157.903 Y144.224 E23.05632
G1 X157.278 Y144.875 E23.08634
G1 X156.597 Y145.469 E23.11639
G1 X155.866 Y146 E23.14644
G1 X155.092 Y146.464 E23.17646
G1 X154.279 Y146.858 E23.20651
G1 X153.435 Y147.178 E23.23653
G1 X152.565 Y147.423 E23.26659
G1 X151.678 Y147.589 E23.29661
G1 X150.527 Y147.687 E23.33503
G1 X150.206 Y147.696 E23.34571
G1 X149.92 Y147.7 E23.35522
G1 X85.325 Y147.699 E25.50366
G1 X84.627 Y147.69 E25.52688
G1 X83.726 Y147.639 E25.55689
G1 X82.832 Y147.507 E25.58695
G1 X81.954 Y147.298 E25.61697
G1 X81.097 Y147.011 E25.64703
G1 X80.27 Y146.65 E25.67704
G1 X79.477 Y146.217 E25.70709
G1 X78.726 Y145.716 E25.73712
G1 X78.022 Y145.15 E25.76716
G1 X77.371 Y144.524 E25.7972
G1 X76.778 Y143.843 E25.82723
G1 X76.248 Y143.112 E25.85726
G1 X75.784 Y142.337 E25.88731
G1 X75.39 Y141.524 E25.91736
G1 X75.07 Y140.68 E25.94738
G1 X74.826 Y139.81 E25.97743
G1 X74.66 Y138.922 E26.00748
G1 X74.563 Y137.767 E26.04603
G1 X74.554 Y137.434 E26.05711
G1 X74.55 Y137.158 E26.06629
G1 X74.551 Y98.036 E27.36749
G1 X74.56 Y97.371 E27.38961
G1 X74.612 Y96.469 E27.41966
G1 X74.744 Y95.576 E27.44969
G1 X74.954 Y94.698 E27.47971
G1 X75.241 Y93.841 E27.50977
G1 X75.603 Y93.014 E27.5398
G1 X76.036 Y92.222 E27.56982
G1 X76.538 Y91.471 E27.59986
G1 X77.105 Y90.767 E27.62993
G1 X77.731 Y90.117 E27.65994
G1 X78.412 Y89.524 E27.68998
G1 F2700 E22.68998
;MESH:bracket.stl
G0 F6000 X101.687 Y107.323
G0 X100.255 Y107.022
G0 X100.726 Y108.29
G0 X100.929 Y108.641
G0 X101.202 Y108.944
G0 X101.538 Y109.184
G0 X102.728 Y109.591
;TYPE:WALL-INNER
G1 F2700 E27.68998
G1 F1200 X103.152 Y109.5 E27.7044
G1 X103.559 Y109.317 E27.71924
G1 X103.907 Y109.064 E27.73355
G1 X104.203 Y108.736 E27.74825
G1 X104.422 Y108.355 E27.76287
G1 X104.557 Y107.938 E27.77744
G1 X104.603 Y107.5 E27.79209
G1 X104.557 Y107.062 E27.80674
G1 X104.422 Y106.645 E27.82132
G1 X104.203 Y106.264 E27.83593
G1 X103.906 Y105.935 E27.85068
G1 X103.543 Y105.675 E27.86553
G1 X103.15 Y105.499 E27.87985
G1 X102.709 Y105.408 E27.89483
G1 X102.272 Y105.409 E27.90936
G1 X101.848 Y105.5 E27.92378
G1 X101.441 Y105.683 E27.93863
G1 X101.092 Y105.937 E27.95298
G1 X100.799 Y106.264 E27.96759
G1 X100.579 Y106.644 E27.98219
G1 X100.443 Y107.062 E27.99681
G1 X100.397 Y107.5 E28.01146
G1 X100.443 Y107.938 E28.02611
G1 X100.579 Y108.356 E28.04073
G1 X100.799 Y108.736 E28.05533
G1 X101.094 Y109.065 E28.07003
G1 X101.457 Y109.325 E28.08488
G1 X101.85 Y109.501 E28.0992
G1 X102.291 Y109.592 E28.11418
G1 X102.728 Y109.591 E28.12871
G0 F6000 X102.685 Y109.191
;TYPE:WALL-OUTER
G1 F1200 X103.027 Y109.118 E28.14034
G1 X103.357 Y108.969 E28.15239
G1 X103.638 Y108.765 E28.16394
G1 X103.877 Y108.5 E28.17581
G1 X104.054 Y108.192 E28.18762
G1 X104.164 Y107.854 E28.19944
G1 X104.201 Y107.5 E28.21128
G1 X104.164 Y107.146 E28.22312
G1 X104.054 Y106.808 E28.23494
G1 X103.877 Y106.5 E28.24676
G1 X103.638 Y106.235 E28.25863
G1 X103.343 Y106.024 E28.27069
G1 X103.026 Y105.882 E28.28224
G1 X102.669 Y105.808 E28.29437
G1 X102.315 Y105.809 E28.30614
G1 X101.973 Y105.882 E28.31777
G1 X101.643 Y106.031 E28.32982
G1 X101.361 Y106.236 E28.34141
G1 X101.124 Y106.5 E28.35321
G1 X100.946 Y106.808 E28.36504
G1 X100.836 Y107.146 E28.37687
G1 X100.799 Y107.5 E28.3887
G1 X100.836 Y107.854 E28.40054
G1 X100.946 Y108.192 E28.41236
G1 X101.124 Y108.5 E28.4242
G1 X101.362 Y108.765 E28.43604
G1 X101.657 Y108.976 E28.44811
G1 X101.974 Y109.118 E28.45966
G1 X102.331 Y109.192 E28.47179
G1 X102.685 Y109.191 E28.48356
G0 F6000 X102.731 Y109.628
G1 F2700 E23.48356
G0 F6000 X102.593 Y108.327
G0 X102.582 Y116.672
G0 X102.728 Y115.217
G0 X103.798 Y116.056
G0 X104.072 Y116.359
G0 X104.274 Y116.71
G0 X104.4 Y117.096
G0 X104.442 Y117.5
G0 X104.4 Y117.904
G0 X104.274 Y118.29
G0 X104.072 Y118.641
G0 X103.798 Y118.944
G0 X102.728 Y119.591
;TYPE:WALL-INNER
G1 F2700 E28.48356
G1 F1200 X103.152 Y119.5 E28.49798
G1 X103.559 Y119.317 E28.51283
G1 X103.907 Y119.064 E28.52714
G1 X104.203 Y118.736 E28.54183
G1 X104.422 Y118.355 E28.55645
G1 X104.557 Y117.938 E28.57103
G1 X104.603 Y117.5 E28.58567
G1 X104.557 Y117.062 E28.60032
G1 X104.422 Y116.645 E28.6149
G1 X104.203 Y116.264 E28.62952
G1 X103.906 Y115.935 E28.64426
G1 X103.543 Y115.675 E28.65911
G1 X103.15 Y115.499 E28.67343
G1 X102.709 Y115.408 E28.68841
G1 X102.272 Y115.409 E28.70294
G1 X101.848 Y115.5 E28.71737
G1 X101.441 Y115.683 E28.73221
G1 X101.092 Y115.937 E28.74656
G1 X100.799 Y116.264 E28.76117
G1 X100.579 Y116.644 E28.77577
G1 X100.443 Y117.062 E28.79039
G1 X100.397 Y117.5 E28.80504
G1 X100.443 Y117.938 E28.81969
G1 X100.579 Y118.356 E28.83431
G1 X100.799 Y118.736 E28.84891
G1 X101.094 Y119.065 E28.86361
G1 X101.457 Y119.325 E28.87846
G1 X101.85 Y119.501 E28.89278
G1 X102.291 Y119.592 E28.90776
G1 X102.728 Y119.591 E28.92229
G0 F6000 X102.685 Y119.191
;TYPE:WALL-OUTER
G1 F1200 X103.027 Y119.118 E28.93393
G1 X103.357 Y118.969 E28.94597
G1 X103.638 Y118.765 E28.95752
G1 X103.877 Y118.5 E28.96939
G1 X104.054 Y118.192 E28.9812
G1 X104.164 Y117.854 E28.99302
G1 X104.201 Y117.5 E29.00486
G1 X104.164 Y117.146 E29.0167
G1 X104.054 Y116.808 E29.02852
G1 X103.877 Y116.5 E29.04034
G1 X103.638 Y116.235 E29.05221
G1 X103.343 Y116.024 E29.06427
G1 X103.026 Y115.882 E29.07582
G1 X102.669 Y115.808 E29.08795
G1 X102.315 Y115.809 E29.09972
G1 X101.973 Y115.882 E29.11136
G1 X101.643 Y116.031 E29.1234
G1 X101.361 Y116.236 E29.13499
G1 X101.124 Y116.5 E29.14679
G1 X100.946 Y116.808 E29.15863
G1 X100.836 Y117.146 E29.17045
G1 X100.799 Y117.5 E29.18229
G1 X100.836 Y117.854 E29.19412
G1 X100.946 Y118.192 E29.20595
G1 X101.124 Y118.5 E29.21778
G1 X101.362 Y118.765 E29.22962
G1 X101.657 Y118.976 E29.24169
G1 X101.974 Y119.118 E29.25324
G1 X102.331 Y119.192 E29.26537
G1 X102.685 Y119.191 E29.27714
G0 F6000 X102.731 Y119.628
G1 F2700 E24.27714
G0 F6000 X102.593 Y118.327
G0 X102.586 Y126.672
G0 X102.74 Y125.217
G0 X103.798 Y126.056
G0 X104.072 Y126.359
G0 X104.274 Y126.71
G0 X104.4 Y127.096
G0 X104.442 Y127.5
G0 X104.4 Y127.904
G0 X104.274 Y128.29
G0 X104.072 Y128.641
G0 X103.798 Y128.944
G0 X102.728 Y129.591
;TYPE:WALL-INNER
G1 F2700 E29.27714
G1 F1200 X103.152 Y129.5 E29.29156
G1 X103.559 Y129.317 E29.30641
G1 X103.907 Y129.064 E29.32072
G1 X104.203 Y128.736 E29.33541
G1 X104.422 Y128.355 E29.35003
G1 X104.557 Y127.938 E29.36461
G1 X104.603 Y127.5 E29.37925
G1 X104.557 Y127.062 E29.3939
G1 X104.422 Y126.645 E29.40848
G1 X104.203 Y126.264 E29.4231
G1 X103.906 Y125.935 E29.43784
G1 X103.543 Y125.675 E29.45269
G1 X103.151 Y125.5 E29.46697
G1 X102.72 Y125.408 E29.48163
G1 X102.272 Y125.409 E29.49653
G1 X101.848 Y125.5 E29.51095
G1 X101.441 Y125.683 E29.52579
G1 X101.092 Y125.937 E29.54015
G1 X100.799 Y126.264 E29.55475
G1 X100.579 Y126.644 E29.56936
G1 X100.443 Y127.062 E29.58398
G1 X100.397 Y127.5 E29.59862
G1 X100.443 Y127.938 E29.61327
G1 X100.579 Y128.356 E29.62789
G1 X100.799 Y128.736 E29.6425
G1 X101.094 Y129.065 E29.65719
G1 X101.457 Y129.325 E29.67205
G1 X101.85 Y129.501 E29.68637
G1 X102.291 Y129.592 E29.70134
G1 X102.728 Y129.591 E29.71588
G0 F6000 X102.685 Y129.191
;TYPE:WALL-OUTER
G1 F1200 X103.027 Y129.118 E29.72751
G1 X103.357 Y128.969 E29.73955
G1 X103.638 Y128.765 E29.7511
G1 X103.877 Y128.5 E29.76297
G1 X104.054 Y128.192 E29.77479
G1 X104.164 Y127.854 E29.78661
G1 X104.201 Y127.5 E29.79845
G1 X104.164 Y127.146 E29.81029
G1 X104.054 Y126.808 E29.82211
G1 X103.877 Y126.5 E29.83392
G1 X103.638 Y126.235 E29.84579
G1 X103.343 Y126.024 E29.85786
G1 X103.026 Y125.882 E29.86941
G1 X102.678 Y125.808 E29.88124
G1 X102.315 Y125.809 E29.89331
G1 X101.973 Y125.882 E29.90495
G1 X101.643 Y126.031 E29.91699
G1 X101.361 Y126.236 E29.92858
G1 X101.124 Y126.5 E29.94038
G1 X100.946 Y126.808 E29.95222
G1 X100.836 Y127.146 E29.96404
G1 X100.799 Y127.5 E29.97588
G1 X100.836 Y127.854 E29.98772
G1 X100.946 Y128.192 E29.99954
G1 X101.124 Y128.5 E30.01137
G1 X101.362 Y128.765 E30.02322
G1 X101.657 Y128.976 E30.03528
G1 X101.974 Y129.118 E30.04683
G1 X102.331 Y129.192 E30.05896
G1 X102.685 Y129.191 E30.07073
G0 F6000 X102.731 Y129.628
G1 F2700 E25.07073
G0 F6000 X103.655 Y129.483
G0 X102.919 Y128.219
G0 X116.774 Y128.035
G0 X118.054 Y128.121
G0 X131.74 Y127.839
G0 X130.403 Y128.433
G0 X131.85 Y129.501
;TYPE:WALL-INNER
G1 F2700 E30.07073
G1 F1200 X132.291 Y129.592 E30.08571
G1 X132.728 Y129.591 E30.10024
G1 X133.152 Y129.5 E30.11467
G1 X133.559 Y129.317 E30.12951
G1 X133.908 Y129.063 E30.14387
G1 X134.201 Y128.736 E30.15847
G1 X134.421 Y128.356 E30.17307
G1 X134.557 Y127.938 E30.18769
G1 X134.603 Y127.5 E30.20234
G1 X134.557 Y127.062 E30.21699
G1 X134.421 Y126.644 E30.23161
G1 X134.201 Y126.264 E30.24621
G1 X133.906 Y125.935 E30.26091
G1 X133.543 Y125.675 E30.27576
G1 X133.15 Y125.499 E30.29008
G1 X132.709 Y125.408 E30.30506
G1 X132.272 Y125.409 E30.3196
G1 X131.848 Y125.5 E30.33402
G1 X131.441 Y125.683 E30.34886
G1 X131.093 Y125.936 E30.36317
