;FLAVOR:Marlin
;TIME:10489
;Filament used: 7.51058m
;Layer height: 0.2
;MINX:73.75
;MINY:86.5
;MINZ:0.2
;MAXX:161.25
;MAXY:148.5
;MAXZ:23.6
;Generated with Cura_SteamEngine 4.13.1
M140 S60
M105
M190 S60
M104 S200
M105
M109 S200
M82 ;absolute extrusion mode
; Ender 3 Custom Start G-code
G92 E0 ; Reset Extruder
G28 ; Home all axes
G1 Z2.0 F3000 ; Move Z Axis up little to prevent scratching of Heat Bed
G1 X0.1 Y20 Z0.3 F5000.0 ; Move to start position
G1 X0.1 Y200.0 Z0.3 F1500.0 E15 ; Draw the first line
G1 X0.4 Y200.0 Z0.3 F5000.0 ; Move to side a little
G1 X0.4 Y20 Z0.3 F1500.0 E30 ; Draw the second line
G92 E0 ; Reset Extruder
G1 Z2.0 F3000 ; Move Z Axis up little to prevent scratching of Heat Bed
G1 X5 Y20 Z0.3 F5000.0 ; Move over to prevent blob squish
G92 E0
G92 E0
G1 F2700 E-5
;LAYER_COUNT:118
;LAYER:0
M107
G0 F6000 X77.636 Y89.127 Z0.2
;TYPE:SKIRT
G1 F2700 E0
G1 F1200 X78.376 Y88.551 E0.03119
G1 X79.162 Y88.039 E0.06239
G1 X79.989 Y87.597 E0.09358
G1 X80.851 Y87.227 E0.12478
G1 X81.741 Y86.931 E0.15597
G1 X82.653 Y86.713 E0.18716
G1 X83.58 Y86.572 E0.21835
G1 X84.451 Y86.513 E0.24738
G1 X84.772 Y86.504 E0.25806
G1 X85.08 Y86.5 E0.26831
G1 X149.543 Y86.5 E2.41236
G1 X150.399 Y86.511 E2.44083
G1 X151.335 Y86.565 E2.47201
G1 X152.263 Y86.697 E2.50319
G1 X153.177 Y86.909 E2.5344
G1 X154.069 Y87.198 E2.56558
G1 X154.934 Y87.561 E2.59678
G1 X155.764 Y87.997 E2.62797
G1 X156.555 Y88.502 E2.65918
G1 X157.299 Y89.073 E2.69037
G1 X157.992 Y89.705 E2.72157
G1 X158.629 Y90.393 E2.75275
G1 X159.204 Y91.134 E2.78395
G1 X159.715 Y91.92 E2.81513
G1 X160.157 Y92.748 E2.84635
G1 X160.526 Y93.61 E2.87753
G1 X160.821 Y94.5 E2.90872
G1 X161.039 Y95.412 E2.93991
G1 X161.179 Y96.34 E2.97112
G1 X161.237 Y97.201 E2.99982
G1 X161.246 Y97.521 E3.01047
G1 X161.25 Y97.83 E3.02075
G1 X161.249 Y136.9 E4.32022
G1 X161.24 Y137.627 E4.34441
G1 X161.189 Y138.564 E4.37562
G1 X161.057 Y139.492 E4.40679
G1 X160.848 Y140.406 E4.43798
G1 X160.561 Y141.299 E4.46917
G1 X160.199 Y142.165 E4.50039
G1 X159.765 Y142.996 E4.53157
G1 X159.261 Y143.787 E4.56277
G1 X158.692 Y144.532 E4.59395
G1 X158.061 Y145.227 E4.62517
G1 X157.374 Y145.865 E4.65635
G1 X156.635 Y146.442 E4.68754
G1 X155.849 Y146.954 E4.71874
G1 X155.023 Y147.397 E4.74991
G1 X154.161 Y147.769 E4.78114
G1 X153.272 Y148.065 E4.8123
G1 X152.36 Y148.285 E4.84351
G1 X151.433 Y148.426 E4.87469
G1 X150.549 Y148.487 E4.90416
G1 X150.228 Y148.496 E4.91485
G1 X149.92 Y148.5 E4.92509
G1 X85.315 Y148.499 E7.07386
G1 X84.617 Y148.49 E7.09708
G1 X83.681 Y148.438 E7.12826
G1 X82.752 Y148.306 E7.15947
G1 X81.838 Y148.096 E7.19066
G1 X80.945 Y147.809 E7.22186
G1 X80.08 Y147.446 E7.25306
G1 X79.249 Y147.012 E7.28424
G1 X78.458 Y146.508 E7.31543
G1 X77.713 Y145.938 E7.34663
G1 X77.019 Y145.307 E7.37783
G1 X76.382 Y144.62 E7.40899
G1 X75.805 Y143.88 E7.4402
G1 X75.293 Y143.094 E7.4714
G1 X74.85 Y142.267 E7.50261
G1 X74.479 Y141.406 E7.53379
G1 X74.183 Y140.516 E7.56498
G1 X73.964 Y139.604 E7.59618
G1 X73.823 Y138.677 E7.62737
G1 X73.763 Y137.788 E7.657
G1 X73.754 Y137.455 E7.66808
G1 X73.75 Y137.158 E7.67796
G1 X73.751 Y98.025 E8.97953
G1 X73.76 Y97.36 E9.00165
G1 X73.813 Y96.424 E9.03283
G1 X73.945 Y95.495 E9.06404
G1 X74.156 Y94.581 E9.09524
G1 X74.444 Y93.689 E9.12641
G1 X74.807 Y92.824 E9.15762
G1 X75.242 Y91.993 E9.18881
G1 X75.746 Y91.203 E9.21998
G1 X76.316 Y90.458 E9.25118
G1 X76.948 Y89.764 E9.2824
G1 X77.636 Y89.127 E9.31358
G0 F6000 X78.024 Y89.323
G1 F1200 X78.76 Y88.77 E9.3442
G1 X79.541 Y88.282 E9.37483
G1 X80.361 Y87.864 E9.40545
G1 X81.215 Y87.519 E9.43608
G1 X82.095 Y87.249 E9.4667
G1 X82.995 Y87.057 E9.4973
G1 X83.909 Y86.943 E9.52794
G1 X84.462 Y86.913 E9.54636
G1 X84.783 Y86.904 E9.55704
G1 X85.08 Y86.9 E9.56692
G1 X149.543 Y86.9 E11.71097
G1 X150.393 Y86.911 E11.73924
G1 X151.312 Y86.964 E11.76986
G1 X152.223 Y87.097 E11.80048
G1 X153.119 Y87.308 E11.83109
G1 X153.993 Y87.596 E11.8617
G1 X154.84 Y87.959 E11.89235
G1 X155.651 Y88.394 E11.92296
G1 X156.421 Y88.898 E11.95357
G1 X157.145 Y89.467 E11.9842
G1 X157.817 Y90.097 E12.01483
G1 X158.432 Y90.782 E12.04545
G1 X158.985 Y91.518 E12.07607
G1 X159.472 Y92.299 E12.10668
G1 X159.889 Y93.12 E12.13731
G1 X160.234 Y93.974 E12.16794
G1 X160.503 Y94.854 E12.19855
G1 X160.695 Y95.755 E12.22919
G1 X160.808 Y96.668 E12.25979
G1 X160.837 Y97.212 E12.27791
G1 X160.846 Y97.532 E12.28855
G1 X160.85 Y97.83 E12.29847
G1 X160.849 Y136.895 E13.59777
G1 X160.84 Y137.622 E13.62196
G1 X160.789 Y138.541 E13.65257
G1 X160.658 Y139.453 E13.68321
G1 X160.448 Y140.349 E13.71382
G1 X160.162 Y141.224 E13.74444
G1 X159.801 Y142.071 E13.77506
G1 X159.367 Y142.883 E13.80569
G1 X158.865 Y143.655 E13.83631
G1 X158.297 Y144.38 E13.86695
G1 X157.669 Y145.053 E13.89756
G1 X156.985 Y145.669 E13.92818
G1 X156.25 Y146.223 E13.95879
G1 X155.47 Y146.712 E13.98941
G1 X154.65 Y147.131 E14.02004
G1 X153.797 Y147.477 E14.05065
G1 X152.917 Y147.748 E14.08128
G1 X152.017 Y147.941 E14.11189
G1 X151.103 Y148.056 E14.14253
G1 X150.538 Y148.087 E14.16135
G1 X150.217 Y148.096 E14.17204
G1 X149.92 Y148.1 E14.18191
G1 X85.32 Y148.099 E16.33052
G1 X84.622 Y148.09 E16.35374
G1 X83.703 Y148.038 E16.38435
G1 X82.792 Y147.907 E16.41496
G1 X81.896 Y147.697 E16.44557
G1 X81.021 Y147.41 E16.4762
G1 X80.174 Y147.048 E16.50684
G1 X79.362 Y146.614 E16.53746
G1 X78.591 Y146.112 E16.56806
G1 X77.866 Y145.544 E16.59869
G1 X77.193 Y144.915 E16.62933
G1 X76.578 Y144.231 E16.65992
G1 X76.024 Y143.496 E16.69054
G1 X75.536 Y142.715 E16.72117
G1 X75.117 Y141.895 E16.75179
G1 X74.771 Y141.042 E16.78241
G1 X74.501 Y140.162 E16.81303
G1 X74.308 Y139.261 E16.84367
G1 X74.194 Y138.348 E16.87428
G1 X74.163 Y137.777 E16.8933
G1 X74.154 Y137.444 E16.90437
G1 X74.15 Y137.158 E16.91389
G1 X74.151 Y98.031 E18.21526
G1 X74.16 Y97.366 E18.23738
G1 X74.212 Y96.446 E18.26803
G1 X74.344 Y95.535 E18.29864
G1 X74.555 Y94.639 E18.32926
G1 X74.842 Y93.764 E18.35989
G1 X75.205 Y92.918 E18.39051
G1 X75.639 Y92.106 E18.42113
G1 X76.142 Y91.335 E18.45175
G1 X76.711 Y90.611 E18.48237
G1 X77.339 Y89.939 E18.51297
G1 X78.024 Y89.323 E18.54361
G0 F6000 X78.412 Y89.524
G1 F1200 X79.144 Y88.994 E18.57366
G1 X79.919 Y88.531 E18.60369
G1 X80.732 Y88.138 E18.63372
G1 X81.577 Y87.818 E18.66378
G1 X82.446 Y87.575 E18.69379
G1 X83.334 Y87.409 E18.72384
G1 X84.473 Y87.313 E18.76185
G1 X84.794 Y87.304 E18.77253
G1 X85.08 Y87.3 E18.78205
G1 X149.543 Y87.3 E20.92609
G1 X150.387 Y87.311 E20.95417
G1 X151.289 Y87.364 E20.98422
G1 X152.182 Y87.496 E21.01425
G1 X153.06 Y87.707 E21.04428
G1 X153.916 Y87.995 E21.07432
G1 X154.743 Y88.357 E21.10434
G1 X155.535 Y88.792 E21.1344
G1 X156.286 Y89.294 E21.16444
G1 X156.989 Y89.861 E21.19448
G1 X157.639 Y90.488 E21.22452
G1 X158.231 Y91.17 E21.25456
G1 X158.761 Y91.901 E21.28459
G1 X159.223 Y92.677 E21.31463
G1 X159.616 Y93.49 E21.34466
G1 X159.934 Y94.335 E21.37469
G1 X160.177 Y95.205 E21.40473
G1 X160.342 Y96.093 E21.43477
G1 X160.437 Y97.223 E21.47249
G1 X160.446 Y97.543 E21.48314
G1 X160.45 Y97.83 E21.49268
G1 X160.449 Y136.89 E22.79182
G1 X160.44 Y137.617 E22.81601
G1 X160.389 Y138.519 E22.84606
G1 X160.258 Y139.413 E22.87611
G1 X160.049 Y140.291 E22.90613
G1 X159.763 Y141.148 E22.93618
G1 X159.402 Y141.976 E22.96622
G1 X158.97 Y142.768 E22.99622
G1 X158.469 Y143.52 E23.02628
G1 X157.903 Y144.224 E23.05632
G1 X157.278 Y144.875 E23.08634
G1 X156.597 Y145.469 E23.11639
G1 X155.866 Y146 E23.14644
G1 X155.092 Y146.464 E23.17646
G1 X154.279 Y146.858 E23.20651
G1 X153.435 Y147.178 E23.23653
G1 X152.565 Y147.423 E23.26659
G1 X151.678 Y147.589 E23.29661
G1 X150.527 Y147.687 E23.33503
G1 X150.206 Y147.696 E23.34571
G1 X149.92 Y147.7 E23.35522
G1 X85.325 Y147.699 E25.50366
G1 X84.627 Y147.69 E25.52688
G1 X83.726 Y147.639 E25.55689
G1 X82.832 Y147.507 E25.58695
G1 X81.954 Y147.298 E25.61697
G1 X81.097 Y147.011 E25.64703
G1 X80.27 Y146.65 E25.67704
G1 X79.477 Y146.217 E25.70709
G1 X78.726 Y145.716 E25.73712
G1 X78.022 Y145.15 E25.76716
G1 X77.371 Y144.524 E25.7972
G1 X76.778 Y143.843 E25.82723
G1 X76.248 Y143.112 E25.85726
G1 X75.784 Y142.337 E25.88731
G1 X75.39 Y141.524 E25.91736
G1 X75.07 Y140.68 E25.94738
G1 X74.826 Y139.81 E25.97743
G1 X74.66 Y138.922 E26.00748
G1 X74.563 Y137.767 E26.04603
G1 X74.554 Y137.434 E26.05711
G1 X74.55 Y137.158 E26.06629
G1 X74.551 Y98.036 E27.36749
G1 X74.56 Y97.371 E27.38961
G1 X74.612 Y96.469 E27.41966
G1 X74.744 Y95.576 E27.44969
G1 X74.954 Y94.698 E27.47971
G1 X75.241 Y93.841 E27.50977
G1 X75.603 Y93.014 E27.5398
G1 X76.036 Y92.222 E27.56982
G1 X76.538 Y91.471 E27.59986
G1 X77.105 Y90.767 E27.62993
G1 X77.731 Y90.117 E27.65994
G1 X78.412 Y89.524 E27.68998
G1 F2700 E22.68998
;MESH:attachment_low.stl
G0 F6000 X95.105 Y104.325
G0 X93.769 Y103.729
G0 X94.091 Y105.127
G0 X94.471 Y105.647
G0 X94.784 Y105.827
G0 X95.679 Y106.194
;TYPE:WALL-INNER
G1 F2700 E27.68998
G1 F1200 X96.027 Y106.12 E27.70181
G1 X96.353 Y105.975 E27.71368
G1 X96.64 Y105.766 E27.72549
G1 X96.878 Y105.501 E27.73733
G1 X97.056 Y105.193 E27.74917
G1 X97.167 Y104.854 E27.76103
G1 X97.203 Y104.5 E27.77287
G1 X97.167 Y104.146 E27.7847
G1 X97.056 Y103.807 E27.79656
G1 X96.878 Y103.498 E27.80842
G1 X96.637 Y103.232 E27.82036
G1 X96.349 Y103.024 E27.83218
G1 X96.025 Y102.881 E27.84396
G1 X95.677 Y102.806 E27.8558
G1 X95.321 Y102.806 E27.86764
G1 X94.973 Y102.88 E27.87947
G1 X94.647 Y103.025 E27.89134
G1 X94.36 Y103.234 E27.90315
G1 X94.122 Y103.499 E27.91499
G1 X93.944 Y103.807 E27.92683
G1 X93.833 Y104.146 E27.93869
G1 X93.797 Y104.5 E27.95053
G1 X93.833 Y104.854 E27.96236
G1 X93.944 Y105.193 E27.97422
G1 X94.122 Y105.502 E27.98609
G1 X94.363 Y105.768 E27.99802
G1 X94.651 Y105.976 E28.00984
G1 X94.975 Y106.119 E28.02162
G1 X95.323 Y106.194 E28.03346
G1 X95.679 Y106.194 E28.0453
G0 F6000 X95.637 Y105.794
;TYPE:WALL-OUTER
G1 F1200 X95.903 Y105.737 E28.05435
G1 X96.152 Y105.627 E28.0634
G1 X96.371 Y105.467 E28.07242
G1 X96.553 Y105.265 E28.08147
G1 X96.689 Y105.029 E28.09053
G1 X96.773 Y104.771 E28.09955
G1 X96.801 Y104.5 E28.10861
G1 X96.773 Y104.229 E28.11767
G1 X96.689 Y103.971 E28.1267
G1 X96.553 Y103.735 E28.13576
G1 X96.369 Y103.532 E28.14487
G1 X96.149 Y103.373 E28.1539
G1 X95.901 Y103.263 E28.16292
G1 X95.635 Y103.206 E28.17197
G1 X95.363 Y103.206 E28.18102
G1 X95.097 Y103.263 E28.19006
G1 X94.848 Y103.373 E28.19912
G1 X94.629 Y103.533 E28.20814
G1 X94.447 Y103.735 E28.21718
G1 X94.311 Y103.971 E28.22624
G1 X94.227 Y104.229 E28.23527
G1 X94.199 Y104.5 E28.24433
G1 X94.227 Y104.771 E28.25339
G1 X94.311 Y105.029 E28.26241
G1 X94.447 Y105.265 E28.27147
G1 X94.631 Y105.468 E28.28059
G1 X94.851 Y105.627 E28.28961
G1 X95.099 Y105.737 E28.29864
G1 X95.365 Y105.794 E28.30769
G1 X95.637 Y105.794 E28.31673
G0 F6000 X95.683 Y106.231
G1 F2700 E23.31673
G0 F6000 X97.033 Y105.614
G0 X95.851 Y104.753
G0 X101.687 Y107.323
G0 X100.255 Y107.022
G0 X100.726 Y108.29
G0 X100.929 Y108.641
G0 X101.206 Y108.947
G0 X101.536 Y109.183
G0 X102.727 Y109.591
;TYPE:WALL-INNER
G1 F2700 E28.31673
G1 F1200 X103.158 Y109.498 E28.3314
G1 X103.557 Y109.318 E28.34596
G1 X103.907 Y109.064 E28.36034
G1 X104.203 Y108.736 E28.37503
G1 X104.422 Y108.355 E28.38965
G1 X104.557 Y107.938 E28.40423
G1 X104.603 Y107.5 E28.41888
G1 X104.557 Y107.062 E28.43352
G1 X104.422 Y106.645 E28.4481
G1 X104.202 Y106.263 E28.46276
G1 X103.902 Y105.932 E28.47762
G1 X103.545 Y105.676 E28.49223
G1 X103.145 Y105.498 E28.5068
G1 X102.713 Y105.408 E28.52147
G1 X102.273 Y105.409 E28.53611
G1 X101.842 Y105.502 E28.55077
G1 X101.443 Y105.682 E28.56533
G1 X101.092 Y105.937 E28.57976
G1 X100.799 Y106.264 E28.59436
G1 X100.579 Y106.644 E28.60897
G1 X100.443 Y107.062 E28.62359
G1 X100.397 Y107.5 E28.63824
G1 X100.443 Y107.938 E28.65288
G1 X100.579 Y108.356 E28.6675
G1 X100.799 Y108.737 E28.68214
G1 X101.098 Y109.068 E28.69697
G1 X101.455 Y109.324 E28.71158
G1 X101.855 Y109.502 E28.72615
G1 X102.287 Y109.592 E28.74082
G1 X102.727 Y109.591 E28.75546
G0 F6000 X102.684 Y109.191
;TYPE:WALL-OUTER
G1 F1200 X103.032 Y109.116 E28.7673
G1 X103.355 Y108.97 E28.77909
G1 X103.638 Y108.765 E28.79071
G1 X103.877 Y108.5 E28.80258
G1 X104.054 Y108.192 E28.81439
G1 X104.164 Y107.854 E28.82622
G1 X104.201 Y107.5 E28.83805
G1 X104.164 Y107.146 E28.84989
G1 X104.054 Y106.808 E28.86172
G1 X103.877 Y106.5 E28.87353
G1 X103.634 Y106.232 E28.88556
G1 X103.345 Y106.025 E28.89739
G1 X103.021 Y105.881 E28.90918
G1 X102.672 Y105.808 E28.92104
G1 X102.316 Y105.809 E28.93288
G1 X101.968 Y105.884 E28.94472
G1 X101.645 Y106.03 E28.95651
G1 X101.361 Y106.236 E28.96818
G1 X101.124 Y106.5 E28.97998
G1 X100.946 Y106.808 E28.99181
G1 X100.836 Y107.146 E29.00363
G1 X100.799 Y107.5 E29.01547
G1 X100.836 Y107.854 E29.02731
G1 X100.946 Y108.192 E29.03913
G1 X101.124 Y108.5 E29.05096
G1 X101.366 Y108.768 E29.06297
G1 X101.655 Y108.975 E29.0748
G1 X101.979 Y109.119 E29.08659
G1 X102.328 Y109.192 E29.09845
G1 X102.684 Y109.191 E29.11029
G0 F6000 X102.731 Y109.628
G1 F2700 E24.11029
G0 F6000 X102.589 Y108.327
G0 X102.581 Y116.672
G0 X102.732 Y115.217
G0 X103.794 Y116.053
G0 X104.072 Y116.359
G0 X104.274 Y116.71
G0 X104.4 Y117.096
G0 X104.442 Y117.5
G0 X104.4 Y117.904
G0 X104.274 Y118.29
G0 X104.072 Y118.641
G0 X103.798 Y118.944
G0 X102.727 Y119.591
;TYPE:WALL-INNER
G1 F2700 E29.11029
G1 F1200 X103.158 Y119.498 E29.12495
G1 X103.557 Y119.318 E29.13951
G1 X103.907 Y119.064 E29.1539
G1 X104.203 Y118.736 E29.16859
G1 X104.422 Y118.355 E29.18321
G1 X104.557 Y117.938 E29.19778
G1 X104.603 Y117.5 E29.21243
G1 X104.557 Y117.062 E29.22708
G1 X104.422 Y116.645 E29.24166
G1 X104.202 Y116.263 E29.25632
G1 X103.902 Y115.932 E29.27118
G1 X103.545 Y115.676 E29.28579
G1 X103.145 Y115.498 E29.30035
G1 X102.713 Y115.408 E29.31503
G1 X102.273 Y115.409 E29.32966
G1 X101.842 Y115.502 E29.34433
G1 X101.443 Y115.682 E29.35889
G1 X101.092 Y115.937 E29.37332
G1 X100.799 Y116.264 E29.38792
G1 X100.579 Y116.644 E29.40252
G1 X100.443 Y117.062 E29.41714
G1 X100.397 Y117.5 E29.43179
G1 X100.443 Y117.938 E29.44644
G1 X100.579 Y118.356 E29.46106
G1 X100.799 Y118.737 E29.47569
G1 X101.098 Y119.068 E29.49053
G1 X101.455 Y119.324 E29.50514
G1 X101.855 Y119.502 E29.5197
G1 X102.287 Y119.592 E29.53438
G1 X102.727 Y119.591 E29.54901
G0 F6000 X102.684 Y119.191
;TYPE:WALL-OUTER
G1 F1200 X103.032 Y119.116 E29.56085
G1 X103.355 Y118.97 E29.57264
G1 X103.638 Y118.765 E29.58427
G1 X103.877 Y118.5 E29.59614
G1 X104.054 Y118.192 E29.60795
G1 X104.164 Y117.854 E29.61977
G1 X104.201 Y117.5 E29.63161
G1 X104.164 Y117.146 E29.64345
G1 X104.054 Y116.808 E29.65527
G1 X103.877 Y116.5 E29.66709
G1 X103.634 Y116.232 E29.67912
G1 X103.345 Y116.025 E29.69094
G1 X103.021 Y115.881 E29.70274
G1 X102.672 Y115.808 E29.71459
G1 X102.316 Y115.809 E29.72644
G1 X101.968 Y115.884 E29.73828
G1 X101.645 Y116.03 E29.75006
G1 X101.361 Y116.236 E29.76173
G1 X101.124 Y116.5 E29.77353
G1 X100.946 Y116.808 E29.78537
G1 X100.836 Y117.146 E29.79719
G1 X100.799 Y117.5 E29.80903
G1 X100.836 Y117.854 E29.82086
G1 X100.946 Y118.192 E29.83269
G1 X101.124 Y118.5 E29.84452
G1 X101.366 Y118.768 E29.85653
G1 X101.655 Y118.975 E29.86835
G1 X101.979 Y119.119 E29.88014
G1 X102.328 Y119.192 E29.892
G1 X102.684 Y119.191 E29.90384
G0 F6000 X102.731 Y119.628
G1 F2700 E24.90384
G0 F6000 X102.268 Y119.783
G0 X102.419 Y118.328
G0 X95.791 Y130.179
G0 X96.765 Y129.089
G0 X97.042 Y130.5
G0 X96.909 Y131.127
G0 X96.57 Y131.593
G0 X95.679 Y132.194
;TYPE:WALL-INNER
G1 F2700 E29.90384
G1 F1200 X96.027 Y132.12 E29.91568
G1 X96.353 Y131.975 E29.92754
G1 X96.64 Y131.766 E29.93935
G1 X96.878 Y131.501 E29.9512
G1 X97.056 Y131.193 E29.96303
G1 X97.167 Y130.854 E29.9749
G1 X97.203 Y130.5 E29.98673
G1 X97.167 Y130.146 E29.99857
G1 X97.056 Y129.807 E30.01043
G1 X96.878 Y129.498 E30.02229
G1 X96.637 Y129.232 E30.03423
G1 X96.349 Y129.024 E30.04604
G1 X96.025 Y128.881 E30.05782
G1 X95.677 Y128.806 E30.06966
G1 X95.321 Y128.806 E30.0815
G1 X94.973 Y128.88 E30.09334
G1 X94.647 Y129.025 E30.10521
G1 X94.36 Y129.234 E30.11701
G1 X94.123 Y129.498 E30.12881
G1 X93.944 Y129.807 E30.14069
G1 X93.833 Y130.146 E30.15256
G1 X93.797 Y130.5 E30.16439
G1 X93.833 Y130.854 E30.17622
G1 X93.944 Y131.193 E30.18809
G1 X94.122 Y131.502 E30.19995
