;FLAVOR:Marlin
;TIME:4158
;Filament used: 2.67968m
;Layer height: 0.2
;MINX:86.5
;MINY:89.5
;MINZ:0.2
;MAXX:148.5
;MAXY:145.5
;MAXZ:16.2
;Generated with Cura_SteamEngine 4.13.1
M140 S60
M105
M190 S60
M104 S200
M105
M109 S200
M82 ;absolute extrusion mode
; Ender 3 Custom Start G-code
G92 E0 ; Reset Extruder
G28 ; Home all axes
G1 Z2.0 F3000 ; Move Z Axis up little to prevent scratching of Heat Bed
G1 X0.1 Y20 Z0.3 F5000.0 ; Move to start position
G1 X0.1 Y200.0 Z0.3 F1500.0 E15 ; Draw the first line
G1 X0.4 Y200.0 Z0.3 F5000.0 ; Move to side a little
G1 X0.4 Y20 Z0.3 F1500.0 E30 ; Draw the second line
G92 E0 ; Reset Extruder
G1 Z2.0 F3000 ; Move Z Axis up little to prevent scratching of Heat Bed
G1 X5 Y20 Z0.3 F5000.0 ; Move over to prevent blob squish
G92 E0
G92 E0
G1 F2700 E-5
;LAYER_COUNT:81
;LAYER:0
M107
G0 F6000 X89.698 Y92.764 Z0.2
;TYPE:SKIRT
G1 F2700 E0
G1 F1200 X90.386 Y92.127 E0.03119
G1 X91.126 Y91.551 E0.06237
G1 X91.912 Y91.039 E0.09357
G1 X92.739 Y90.597 E0.12476
G1 X93.601 Y90.227 E0.15596
G1 X94.491 Y89.931 E0.18716
G1 X95.403 Y89.713 E0.21835
G1 X96.33 Y89.572 E0.24953
G1 X97.201 Y89.513 E0.27857
G1 X97.522 Y89.504 E0.28925
G1 X97.83 Y89.5 E0.29949
G1 X136.793 Y89.5 E1.59541
G1 X137.649 Y89.511 E1.62388
G1 X138.585 Y89.565 E1.65507
G1 X139.513 Y89.697 E1.68624
G1 X140.427 Y89.909 E1.71745
G1 X141.319 Y90.198 E1.74863
G1 X142.184 Y90.561 E1.77984
G1 X143.014 Y90.997 E1.81102
G1 X143.805 Y91.502 E1.84223
G1 X144.549 Y92.073 E1.87342
G1 X145.242 Y92.705 E1.90462
G1 X145.879 Y93.393 E1.9358
G1 X146.454 Y94.134 E1.967
G1 X146.965 Y94.92 E1.99818
G1 X147.407 Y95.748 E2.0294
G1 X147.776 Y96.61 E2.06059
G1 X148.071 Y97.5 E2.09177
G1 X148.289 Y98.412 E2.12296
G1 X148.429 Y99.34 E2.15417
G1 X148.487 Y100.201 E2.18288
G1 X148.496 Y100.521 E2.19352
G1 X148.5 Y100.83 E2.2038
G1 X148.499 Y116.126 E2.71255
G1 X148.489 Y116.848 E2.73656
G1 X148.436 Y117.785 E2.76778
G1 X148.303 Y118.713 E2.79896
G1 X148.092 Y119.627 E2.83016
G1 X147.804 Y120.519 E2.86134
G1 X147.441 Y121.384 E2.89254
G1 X147.005 Y122.215 E2.92375
G1 X146.501 Y123.005 E2.95492
G1 X146.145 Y123.485 E2.97479
G1 X145.97 Y123.706 E2.98417
G1 X144.441 Y125.601 E3.06515
G1 X142.904 Y127.62 E3.14955
G1 X141.442 Y129.657 E3.23295
G1 X140.045 Y131.726 E3.31598
G1 X138.687 Y133.866 E3.40028
G1 X137.379 Y136.059 E3.4852
G1 X136.18 Y138.209 E3.56708
G1 X135.909 Y138.726 E3.5865
G1 X135.396 Y139.676 E3.62241
G1 X134.87 Y140.551 E3.65636
G1 X134.842 Y140.593 E3.65804
G1 X134.289 Y141.35 E3.68922
G1 X133.673 Y142.058 E3.72044
G1 X132.999 Y142.71 E3.75163
G1 X132.273 Y143.303 E3.7828
G1 X131.498 Y143.832 E3.81401
G1 X130.681 Y144.293 E3.84521
G1 X129.828 Y144.683 E3.87641
G1 X128.945 Y144.998 E3.90759
G1 X128.038 Y145.237 E3.93879
G1 X127.114 Y145.398 E3.96998
G1 X125.999 Y145.487 E4.00719
G1 X125.68 Y145.496 E4.0178
G1 X125.37 Y145.5 E4.02811
G1 X110.05 Y145.499 E4.53766
G1 X109.348 Y145.489 E4.56101
G1 X108.412 Y145.436 E4.59219
G1 X107.484 Y145.303 E4.62337
G1 X106.57 Y145.091 E4.65458
G1 X105.677 Y144.803 E4.68578
G1 X104.813 Y144.439 E4.71697
G1 X103.982 Y144.003 E4.74818
G1 X103.192 Y143.498 E4.77937
G1 X102.448 Y142.928 E4.81054
G1 X101.755 Y142.296 E4.84173
G1 X101.118 Y141.607 E4.87294
G1 X100.542 Y140.867 E4.90413
G1 X99.9 Y139.851 E4.94411
G1 X99.66 Y139.418 E4.96057
G1 X98.76 Y137.752 E5.02355
G1 X97.502 Y135.576 E5.10715
G1 X96.195 Y133.455 E5.19001
G1 X94.791 Y131.314 E5.27517
G1 X93.361 Y129.264 E5.3583
G1 X91.857 Y127.23 E5.44244
G1 X90.298 Y125.243 E5.52644
G1 X89.455 Y124.23 E5.57027
G1 X88.954 Y123.61 E5.59679
G1 X88.396 Y122.856 E5.62798
G1 X87.905 Y122.057 E5.65918
G1 X87.483 Y121.219 E5.69038
G1 X87.134 Y120.349 E5.72156
G1 X86.861 Y119.452 E5.75275
G1 X86.665 Y118.534 E5.78397
G1 X86.548 Y117.604 E5.81514
G1 X86.515 Y117.033 E5.83417
G1 X86.505 Y116.707 E5.84501
G1 X86.5 Y116.37 E5.85622
G1 X86.501 Y101.025 E6.3666
G1 X86.51 Y100.36 E6.38872
G1 X86.563 Y99.424 E6.4199
G1 X86.695 Y98.495 E6.45111
G1 X86.906 Y97.581 E6.48231
G1 X87.194 Y96.689 E6.51349
G1 X87.557 Y95.824 E6.54469
G1 X87.992 Y94.993 E6.57588
G1 X88.496 Y94.203 E6.60705
G1 X89.066 Y93.458 E6.63825
G1 X89.698 Y92.764 E6.66947
G0 F6000 X90.089 Y92.939
G1 F1200 X90.774 Y92.323 E6.70011
G1 X91.51 Y91.77 E6.73073
G1 X92.291 Y91.282 E6.76136
G1 X93.111 Y90.864 E6.79197
G1 X93.965 Y90.519 E6.82261
G1 X94.845 Y90.249 E6.85322
G1 X95.745 Y90.057 E6.88383
G1 X96.659 Y89.943 E6.91447
G1 X97.212 Y89.913 E6.93289
G1 X97.533 Y89.904 E6.94357
G1 X97.83 Y89.9 E6.95345
G1 X136.793 Y89.9 E8.24936
G1 X137.643 Y89.911 E8.27763
G1 X138.562 Y89.964 E8.30825
G1 X139.473 Y90.097 E8.33887
G1 X140.369 Y90.308 E8.36949
G1 X141.243 Y90.596 E8.40009
G1 X142.09 Y90.959 E8.43074
G1 X142.901 Y91.394 E8.46135
G1 X143.671 Y91.898 E8.49196
G1 X144.395 Y92.467 E8.52259
G1 X145.067 Y93.097 E8.55323
G1 X145.682 Y93.782 E8.58384
G1 X146.235 Y94.518 E8.61446
G1 X146.722 Y95.299 E8.64508
G1 X147.139 Y96.12 E8.6757
G1 X147.484 Y96.974 E8.70634
G1 X147.753 Y97.854 E8.73694
G1 X147.945 Y98.755 E8.76758
G1 X148.058 Y99.668 E8.79818
G1 X148.087 Y100.212 E8.8163
G1 X148.096 Y100.532 E8.82695
G1 X148.1 Y100.83 E8.83686
G1 X148.099 Y116.121 E9.34544
G1 X148.089 Y116.843 E9.36946
G1 X148.036 Y117.762 E9.40007
G1 X147.904 Y118.673 E9.43069
G1 X147.693 Y119.569 E9.46131
G1 X147.405 Y120.444 E9.49195
G1 X147.043 Y121.29 E9.52255
G1 X146.608 Y122.102 E9.55319
G1 X145.831 Y123.238 E9.59897
G1 X145.659 Y123.455 E9.60818
G1 X144.11 Y125.375 E9.69023
G1 X142.593 Y127.367 E9.77351
G1 X141.102 Y129.446 E9.8586
G1 X139.708 Y131.509 E9.94141
G1 X138.348 Y133.652 E10.02583
G1 X137.045 Y135.839 E10.1105
G1 X135.819 Y138.035 E10.19415
G1 X135.557 Y138.536 E10.21295
G1 X135.044 Y139.486 E10.24886
G1 X134.537 Y140.329 E10.28158
G1 X134.509 Y140.371 E10.28326
G1 X133.965 Y141.114 E10.31389
G1 X133.359 Y141.807 E10.34451
G1 X132.696 Y142.445 E10.37511
G1 X131.979 Y143.023 E10.40574
G1 X131.215 Y143.537 E10.43637
G1 X130.409 Y143.982 E10.46699
G1 X129.568 Y144.356 E10.4976
G1 X128.697 Y144.655 E10.52823
G1 X127.804 Y144.878 E10.55885
G1 X126.895 Y145.022 E10.58946
G1 X125.988 Y145.087 E10.6197
G1 X125.669 Y145.096 E10.63032
G1 X125.37 Y145.1 E10.64026
G1 X110.056 Y145.099 E11.14961
G1 X109.354 Y145.089 E11.17296
G1 X108.435 Y145.036 E11.20358
G1 X107.524 Y144.903 E11.2342
G1 X106.628 Y144.692 E11.26481
G1 X105.753 Y144.404 E11.29545
G1 X104.907 Y144.041 E11.32607
G1 X104.096 Y143.606 E11.35668
G1 X103.325 Y143.102 E11.38732
G1 X102.601 Y142.534 E11.41792
G1 X101.929 Y141.904 E11.44856
G1 X101.315 Y141.219 E11.47916
G1 X100.762 Y140.483 E11.50977
G1 X100.249 Y139.656 E11.54214
G1 X100.011 Y139.228 E11.55843
G1 X99.1 Y137.541 E11.6222
G1 X97.846 Y135.372 E11.70553
G1 X96.51 Y133.205 E11.7902
G1 X95.137 Y131.111 E11.87348
G1 X93.678 Y129.019 E11.95832
G1 X92.178 Y126.991 E12.04221
G1 X90.605 Y124.986 E12.12697
G1 X89.766 Y123.978 E12.17059
G1 X89.265 Y123.358 E12.1971
G1 X88.718 Y122.618 E12.22771
G1 X88.238 Y121.832 E12.25834
G1 X87.827 Y121.009 E12.28894
G1 X87.489 Y120.152 E12.31958
G1 X87.227 Y119.269 E12.35022
G1 X87.043 Y118.368 E12.3808
G1 X86.915 Y117.021 E12.4258
G1 X86.905 Y116.695 E12.43665
G1 X86.9 Y116.37 E12.44746
G1 X86.901 Y101.031 E12.95764
G1 X86.91 Y100.366 E12.97976
G1 X86.962 Y99.446 E13.01041
G1 X87.094 Y98.535 E13.04102
G1 X87.305 Y97.639 E13.07164
G1 X87.592 Y96.764 E13.10227
G1 X87.955 Y95.918 E13.13289
G1 X88.389 Y95.106 E13.16351
G1 X88.892 Y94.335 E13.19413
G1 X89.461 Y93.611 E13.22476
G1 X90.089 Y92.939 E13.25535
G0 F6000 X90.481 Y93.117
G1 F1200 X91.162 Y92.524 E13.28538
G1 X91.894 Y91.994 E13.31544
G1 X92.669 Y91.531 E13.34547
G1 X93.482 Y91.138 E13.3755
G1 X94.327 Y90.818 E13.40555
G1 X95.196 Y90.575 E13.43556
G1 X96.084 Y90.409 E13.46561
G1 X97.223 Y90.313 E13.50363
G1 X97.544 Y90.304 E13.51431
G1 X97.83 Y90.3 E13.52382
G1 X136.793 Y90.3 E14.81974
G1 X137.637 Y90.311 E14.84781
G1 X138.539 Y90.364 E14.87786
G1 X139.432 Y90.496 E14.90789
G1 X140.31 Y90.707 E14.93792
G1 X141.166 Y90.995 E14.96796
G1 X141.993 Y91.357 E14.99799
G1 X142.785 Y91.792 E15.02804
G1 X143.536 Y92.294 E15.05809
G1 X144.239 Y92.861 E15.08812
G1 X144.889 Y93.488 E15.11816
G1 X145.481 Y94.17 E15.1482
G1 X146.011 Y94.901 E15.17823
G1 X146.473 Y95.677 E15.20827
G1 X146.866 Y96.49 E15.2383
G1 X147.184 Y97.335 E15.26833
G1 X147.427 Y98.205 E15.29838
G1 X147.592 Y99.093 E15.32842
G1 X147.687 Y100.223 E15.36613
G1 X147.696 Y100.543 E15.37678
G1 X147.7 Y100.83 E15.38633
G1 X147.699 Y116.115 E15.89471
G1 X147.689 Y116.837 E15.91872
G1 X147.637 Y117.739 E15.94877
G1 X147.505 Y118.632 E15.9788
G1 X147.294 Y119.51 E16.00883
G1 X147.007 Y120.367 E16.03889
G1 X146.645 Y121.194 E16.06892
G1 X146.211 Y121.986 E16.09896
G1 X145.516 Y122.991 E16.1396
G1 X145.348 Y123.204 E16.14862
G1 X143.796 Y125.127 E16.23081
G1 X142.266 Y127.138 E16.31485
G1 X140.79 Y129.195 E16.39906
G1 X139.356 Y131.318 E16.48427
G1 X138 Y133.455 E16.56845
G1 X136.71 Y135.619 E16.65224
G1 X135.458 Y137.861 E16.73765
G1 X135.205 Y138.346 E16.75584
G1 X134.692 Y139.296 E16.79175
G1 X134.204 Y140.107 E16.82324
G1 X134.176 Y140.149 E16.82491
G1 X133.642 Y140.877 E16.85494
G1 X133.046 Y141.556 E16.88499
G1 X132.392 Y142.179 E16.91503
G1 X131.686 Y142.742 E16.94507
G1 X130.933 Y143.24 E16.97509
G1 X130.138 Y143.669 E17.00514
G1 X129.309 Y144.027 E17.03517
G1 X128.451 Y144.31 E17.06522
G1 X127.572 Y144.516 E17.09525
G1 X126.678 Y144.643 E17.12529
G1 X125.977 Y144.687 E17.14865
G1 X125.658 Y144.696 E17.15926
G1 X125.37 Y144.7 E17.16884
G1 X110.062 Y144.699 E17.67799
G1 X109.36 Y144.689 E17.70134
G1 X108.458 Y144.636 E17.73139
G1 X107.565 Y144.504 E17.76141
G1 X106.687 Y144.293 E17.79145
G1 X105.831 Y144.005 E17.82149
G1 X105.003 Y143.643 E17.85154
G1 X104.211 Y143.209 E17.88158
G1 X103.461 Y142.706 E17.91162
G1 X102.758 Y142.14 E17.94163
G1 X102.108 Y141.513 E17.97167
G1 X101.516 Y140.831 E18.00171
G1 X100.986 Y140.099 E18.03177
G1 X100.598 Y139.461 E18.0566
G1 X100.363 Y139.038 E18.0727
G1 X99.455 Y137.357 E18.13624
G1 X98.175 Y135.142 E18.22133
G1 X96.853 Y132.998 E18.30511
G1 X95.473 Y130.892 E18.38885
G1 X93.995 Y128.774 E18.47475
G1 X92.499 Y126.752 E18.55841
G1 X90.928 Y124.749 E18.64308
G1 X90.077 Y123.727 E18.68731
G1 X89.576 Y123.107 E18.71382
G1 X89.04 Y122.38 E18.74387
G1 X88.571 Y121.609 E18.77388
G1 X88.171 Y120.799 E18.80393
G1 X87.845 Y119.956 E18.83399
G1 X87.595 Y119.089 E18.864
G1 X87.422 Y118.202 E18.89406
G1 X87.315 Y117.009 E18.9339
G1 X87.305 Y116.683 E18.94474
G1 X87.3 Y116.37 E18.95516
G1 X87.301 Y101.036 E19.46517
G1 X87.31 Y100.371 E19.48729
G1 X87.362 Y99.469 E19.51734
G1 X87.494 Y98.576 E19.54736
G1 X87.704 Y97.698 E19.57739
G1 X87.991 Y96.841 E19.60745
G1 X88.353 Y96.014 E19.63747
G1 X88.786 Y95.222 E19.6675
G1 X89.288 Y94.471 E19.69754
G1 X89.855 Y93.767 E19.72761
G1 X90.481 Y93.117 E19.75762
G1 F2700 E14.75762
;MESH:cornerT.stl
G0 F6000 X132.169 Y108.6
G0 X130.706 Y108.6
G0 X131.542 Y109.676
G0 X132.341 Y110.195
;TYPE:WALL-INNER
G1 F2700 E19.75762
G1 F1200 X132.678 Y110.194 E19.76883
G1 X132.999 Y110.124 E19.77976
G1 X133.308 Y109.984 E19.79104
G1 X133.572 Y109.792 E19.8019
G1 X133.796 Y109.543 E19.81304
G1 X133.965 Y109.253 E19.8242
G1 X134.069 Y108.933 E19.83539
G1 X134.103 Y108.6 E19.84652
G1 X134.069 Y108.267 E19.85766
G1 X133.965 Y107.947 E19.86885
G1 X133.795 Y107.655 E19.88009
G1 X133.565 Y107.402 E19.89146
G1 X133.294 Y107.208 E19.90254
G1 X132.995 Y107.075 E19.91343
G1 X132.659 Y107.005 E19.92484
G1 X132.322 Y107.006 E19.93605
G1 X132.001 Y107.076 E19.94698
G1 X131.692 Y107.216 E19.95826
G1 X131.428 Y107.408 E19.96912
G1 X131.204 Y107.657 E19.98026
G1 X131.035 Y107.947 E19.99142
G1 X130.931 Y108.267 E20.00262
G1 X130.897 Y108.6 E20.01375
G1 X130.931 Y108.933 E20.02488
G1 X131.035 Y109.253 E20.03607
G1 X131.205 Y109.545 E20.04731
G1 X131.435 Y109.798 E20.05868
G1 X131.706 Y109.992 E20.06977
G1 X132.005 Y110.125 E20.08065
G1 X132.341 Y110.195 E20.09207
G0 F6000 X132.382 Y109.795
;TYPE:WALL-OUTER
G1 F1200 X132.634 Y109.794 E20.10045
G1 X132.872 Y109.742 E20.10855
G1 X133.106 Y109.636 E20.1171
G1 X133.303 Y109.493 E20.12519
G1 X133.471 Y109.306 E20.13355
G1 X133.598 Y109.089 E20.14192
G1 X133.675 Y108.85 E20.15027
G1 X133.701 Y108.6 E20.15863
G1 X133.675 Y108.35 E20.16699
G1 X133.598 Y108.111 E20.17534
G1 X133.471 Y107.893 E20.18373
G1 X133.298 Y107.703 E20.19228
G1 X133.094 Y107.557 E20.20062
G1 X132.871 Y107.458 E20.20874
G1 X132.618 Y107.405 E20.21733
G1 X132.366 Y107.406 E20.22571
G1 X132.128 Y107.458 E20.23382
G1 X131.894 Y107.564 E20.24236
G1 X131.697 Y107.707 E20.25046
G1 X131.529 Y107.894 E20.25882
G1 X131.402 Y108.111 E20.26718
G1 X131.325 Y108.35 E20.27553
G1 X131.299 Y108.6 E20.28389
G1 X131.325 Y108.85 E20.29225
G1 X131.402 Y109.089 E20.3006
G1 X131.529 Y109.307 E20.309
G1 X131.702 Y109.497 E20.31754
G1 X131.906 Y109.643 E20.32589
G1 X132.129 Y109.742 E20.334
G1 X132.382 Y109.795 E20.3426
G0 F6000 X132.338 Y110.232
G1 F2700 E15.3426
G0 F6000 X131.946 Y110.307
G0 X132.394 Y108.913
G0 X126.368 Y117.291
G0 X117.785 Y129.225
G0 X118.646 Y128.044
G0 X119.034 Y129.349
G0 X118.971 Y129.945
G0 X118.672 Y130.463
G0 X118.402 Y130.661
G0 X117.611 Y131.103
;TYPE:WALL-INNER
G1 F2700 E20.3426
G1 F1200 X117.943 Y131.065 E20.35371
G1 X118.261 Y130.961 E20.36484
G1 X118.55 Y130.791 E20.37599
G1 X118.792 Y130.572 E20.38685
G1 X118.988 Y130.302 E20.39795
G1 X119.124 Y129.996 E20.40908
G1 X119.195 Y129.669 E20.42021
G1 X119.195 Y129.331 E20.43145
G1 X119.124 Y129.004 E20.44258
G1 X118.988 Y128.698 E20.45372
G1 X118.79 Y128.425 E20.46494
G1 X118.534 Y128.199 E20.4763
G1 X118.245 Y128.032 E20.4874
G1 X117.931 Y127.931 E20.49837
G1 X117.589 Y127.897 E20.5098
G1 X117.257 Y127.935 E20.52091
G1 X116.939 Y128.039 E20.53204
G1 X116.65 Y128.209 E20.54319
G1 X116.408 Y128.428 E20.55405
G1 X116.212 Y128.698 E20.56515
G1 X116.076 Y129.004 E20.57628
G1 X116.005 Y129.331 E20.58741
G1 X116.005 Y129.669 E20.59866
G1 X116.076 Y129.996 E20.60978
G1 X116.212 Y130.302 E20.62092
G1 X116.41 Y130.575 E20.63214
G1 X116.666 Y130.801 E20.6435
G1 X116.955 Y130.968 E20.6546
G1 X117.269 Y131.069 E20.66557
G1 X117.611 Y131.103 E20.677
G0 F6000 X117.608 Y130.701
;TYPE:WALL-OUTER
G1 F1200 X117.857 Y130.672 E20.68534
G1 X118.096 Y130.594 E20.6937
G1 X118.312 Y130.467 E20.70203
G1 X118.493 Y130.303 E20.71016
G1 X118.64 Y130.101 E20.71847
G1 X118.742 Y129.871 E20.72683
G1 X118.795 Y129.626 E20.73517
G1 X118.795 Y129.374 E20.74355
G1 X118.742 Y129.129 E20.75189
G1 X118.64 Y128.899 E20.76026
G1 X118.492 Y128.696 E20.76861
G1 X118.299 Y128.525 E20.77719
G1 X118.082 Y128.4 E20.78552
G1 X117.849 Y128.325 E20.79366
G1 X117.592 Y128.299 E20.80225
G1 X117.343 Y128.328 E20.81059
G1 X117.104 Y128.406 E20.81895
G1 X116.888 Y128.533 E20.82729
G1 X116.707 Y128.697 E20.83541
G1 X116.56 Y128.899 E20.84372
G1 X116.458 Y129.129 E20.85209
G1 X116.405 Y129.374 E20.86043
G1 X116.405 Y129.626 E20.86881
G1 X116.458 Y129.871 E20.87714
G1 X116.56 Y130.101 E20.88551
G1 X116.708 Y130.304 E20.89387
G1 X116.901 Y130.475 E20.90244
G1 X117.118 Y130.6 E20.91077
G1 X117.351 Y130.675 E20.91891
G1 X117.608 Y130.701 E20.92751
G0 F6000 X117.611 Y131.141
G1 F2700 E15.92751
G0 F6000 X116.554 Y130.956
G0 X116.554 Y133.69
G0 X110.1 Y133.9
;TYPE:WALL-INNER
G1 F2700 E20.92751
G1 F1200 X110.1 Y116.1 E21.51954
G1 X98.1 Y116.1 E21.91866
G1 X98.1 Y101.1 E22.41756
G1 X136.9 Y101.1 E23.70805
G1 X136.9 Y116.1 E24.20696
G1 X125.1 Y116.1 E24.59943
G1 X125.1 Y133.9 E25.19146
G1 X110.1 Y133.9 E25.69036
G0 F6000 X109.7 Y134.3
;TYPE:WALL-OUTER
G1 F1200 X109.7 Y116.5 E26.28239
G1 X97.7 Y116.5 E26.68151
G1 X97.7 Y100.7 E27.20702
G1 X137.3 Y100.7 E28.52412
G1 X137.3 Y116.5 E29.04963
G1 X125.5 Y116.5 E29.4421
G1 X125.5 Y134.3 E30.03413
G1 X109.7 Y134.3 E30.55964
G0 F6000 X109.97 Y134.03
G0 X110.21 Y133.51
G0 X110.49 Y133.51
;TYPE:SKIN
G1 F1200 X110.49 Y115.71 E31.15167
G1 X98.49 Y115.71 E31.55079
G1 X98.49 Y101.49 E32.02375
G1 X136.51 Y101.49 E33.2883
G1 X136.51 Y115.71 E33.76126
G1 X124.71 Y115.71 E34.15373
G1 X124.71 Y133.51 E34.74576
G1 X110.49 Y133.51 E35.21872
G1 F2700 E30.21872
G0 F6000 X110.21 Y133.51
G0 X110.31 Y130.358
