;FLAVOR:Marlin
;TIME:3750
;Filament used: 2.51634m
;Layer height: 0.2
;MINX:80.776
;MINY:80.801
;MINZ:0.2
;MAXX:154.224
;MAXY:154.199
;MAXZ:15
;Generated with Cura_SteamEngine 4.13.1
M140 S60
M105
M190 S60
M104 S200
M105
M109 S200
M82 ;absolute extrusion mode
; Ender 3 Custom Start G-code
G92 E0 ; Reset Extruder
G28 ; Home all axes
G1 Z2.0 F3000 ; Move Z Axis up little to prevent scratching of Heat Bed
G1 X0.1 Y20 Z0.3 F5000.0 ; Move to start position
G1 X0.1 Y200.0 Z0.3 F1500.0 E15 ; Draw the first line
G1 X0.4 Y200.0 Z0.3 F5000.0 ; Move to side a little
G1 X0.4 Y20 Z0.3 F1500.0 E30 ; Draw the second line
G92 E0 ; Reset Extruder
G1 Z2.0 F3000 ; Move Z Axis up little to prevent scratching of Heat Bed
G1 X5 Y20 Z0.3 F5000.0 ; Move over to prevent blob squish
G92 E0
G92 E0
G1 F2700 E-5
;LAYER_COUNT:75
;LAYER:0
M107
G0 F6000 X90.958 Y92.116 Z0.2
;TYPE:SKIRT
G1 F2700 E0
G1 F1200 X91.781 Y91.31 E0.03831
G1 X91.949 Y91.149 E0.04605
G1 X93.138 Y90.035 E0.10024
G1 X93.587 Y89.625 E0.12047
G1 X94.353 Y88.987 E0.15362
G1 X95.254 Y88.303 E0.19125
G1 X95.445 Y88.161 E0.19917
G1 X96.767 Y87.203 E0.25347
G1 X97.275 Y86.844 E0.27416
G1 X98.133 Y86.295 E0.30803
G1 X99.074 Y85.753 E0.34415
G1 X99.265 Y85.646 E0.35143
G1 X100.752 Y84.829 E0.40787
G1 X101.263 Y84.557 E0.42712
G1 X102.175 Y84.124 E0.4607
G1 X103.24 Y83.677 E0.49911
G1 X103.445 Y83.593 E0.50648
G1 X104.803 Y83.055 E0.55506
G1 X105.537 Y82.776 E0.58118
G1 X106.482 Y82.465 E0.61427
G1 X107.553 Y82.166 E0.65125
G1 X107.779 Y82.106 E0.65903
G1 X109.401 Y81.691 E0.71472
G1 X109.972 Y81.553 E0.73426
G1 X110.954 Y81.362 E0.76753
G1 X112.116 Y81.191 E0.80659
G1 X112.342 Y81.16 E0.81418
G1 X113.778 Y80.979 E0.86232
G1 X114.554 Y80.892 E0.88829
G1 X115.547 Y80.826 E0.92139
G1 X116.665 Y80.803 E0.95859
G1 X116.891 Y80.801 E0.9661
G1 X118.41 Y80.801 E1.01662
G1 X119.146 Y80.81 E1.04111
G1 X120.157 Y80.87 E1.07479
G1 X121.297 Y80.991 E1.11292
G1 X121.51 Y81.016 E1.12005
G1 X122.972 Y81.2 E1.16906
G1 X123.744 Y81.308 E1.19499
G1 X124.725 Y81.492 E1.22819
G1 X125.827 Y81.751 E1.26584
G1 X126.048 Y81.805 E1.27341
G1 X127.682 Y82.226 E1.32953
G1 X128.2 Y82.366 E1.34737
G1 X129.174 Y82.678 E1.38139
G1 X130.26 Y83.083 E1.41994
G1 X130.468 Y83.163 E1.42735
G1 X131.836 Y83.705 E1.47629
G1 X132.561 Y84.004 E1.50238
G1 X133.451 Y84.419 E1.53504
G1 X134.431 Y84.931 E1.57182
G1 X134.641 Y85.044 E1.57975
G1 X136.132 Y85.866 E1.63637
G1 X136.623 Y86.145 E1.65516
G1 X137.47 Y86.678 E1.68844
G1 X138.396 Y87.322 E1.72596
G1 X138.578 Y87.452 E1.7334
G1 X139.933 Y88.437 E1.78911
G1 X140.388 Y88.777 E1.80801
G1 X141.169 Y89.418 E1.84161
G1 X142.041 Y90.204 E1.88066
G1 X142.207 Y90.357 E1.88817
G1 X143.407 Y91.486 E1.94297
G1 X143.82 Y91.885 E1.96206
G1 X144.505 Y92.61 E1.99524
G1 X145.241 Y93.463 E2.03271
G1 X145.391 Y93.64 E2.04043
G1 X146.468 Y94.945 E2.09671
G1 X146.832 Y95.399 E2.11606
G1 X147.413 Y96.194 E2.14881
G1 X148.04 Y97.138 E2.1865
G1 X148.165 Y97.33 E2.19412
G1 X149.049 Y98.725 E2.24905
G1 X149.358 Y99.227 E2.26866
G1 X149.844 Y100.104 E2.30201
G1 X150.364 Y101.152 E2.34092
G1 X150.464 Y101.36 E2.34859
G1 X151.161 Y102.844 E2.40312
G1 X151.4 Y103.371 E2.42237
G1 X151.771 Y104.299 E2.45561
G1 X152.144 Y105.371 E2.49336
G1 X152.215 Y105.582 E2.50077
G1 X152.737 Y107.189 E2.55697
G1 X152.909 Y107.748 E2.57642
G1 X153.155 Y108.697 E2.60903
G1 X153.391 Y109.808 E2.6468
G1 X153.435 Y110.027 E2.65423
G1 X153.725 Y111.543 E2.70557
G1 X153.851 Y112.256 E2.72965
G1 X153.979 Y113.248 E2.76292
G1 X154.071 Y114.357 E2.79993
G1 X154.087 Y114.574 E2.80717
G1 X154.191 Y116.237 E2.86259
G1 X154.221 Y116.851 E2.88303
G1 X154.224 Y117.85 E2.91626
G1 X154.177 Y118.967 E2.95344
G1 X154.165 Y119.198 E2.96114
G1 X154.06 Y120.841 E3.0159
G1 X154.012 Y121.463 E3.03665
G1 X153.889 Y122.462 E3.07012
G1 X153.703 Y123.555 E3.107
G1 X153.665 Y123.767 E3.11416
G1 X153.353 Y125.402 E3.16952
G1 X153.233 Y125.99 E3.18948
G1 X152.983 Y126.979 E3.22341
G1 X152.661 Y128.042 E3.26035
G1 X152.593 Y128.257 E3.26785
G1 X152.087 Y129.81 E3.32218
G1 X151.894 Y130.381 E3.34223
G1 X151.515 Y131.348 E3.37677
G1 X151.038 Y132.415 E3.41565
G1 X150.948 Y132.611 E3.42282
G1 X150.263 Y134.066 E3.47631
G1 X150.003 Y134.601 E3.49609
G1 X149.514 Y135.498 E3.53007
G1 X148.925 Y136.469 E3.56784
G1 X148.806 Y136.66 E3.57533
G1 X147.898 Y138.088 E3.63161
G1 X147.589 Y138.559 E3.65035
G1 X147.01 Y139.36 E3.68322
G1 X146.297 Y140.259 E3.72138
G1 X146.155 Y140.435 E3.72891
G1 X145.089 Y141.723 E3.78451
G1 X144.726 Y142.15 E3.80315
G1 X144.042 Y142.884 E3.83652
G1 X143.219 Y143.69 E3.87484
G1 X143.051 Y143.851 E3.88258
G1 X141.862 Y144.965 E3.93677
G1 X141.413 Y145.375 E3.95699
G1 X140.647 Y146.013 E3.99015
G1 X139.746 Y146.697 E4.02777
G1 X139.555 Y146.839 E4.03569
G1 X138.233 Y147.797 E4.08999
G1 X137.725 Y148.156 E4.11068
G1 X136.867 Y148.705 E4.14456
G1 X135.926 Y149.247 E4.18068
G1 X135.735 Y149.354 E4.18796
G1 X134.248 Y150.171 E4.24439
G1 X133.737 Y150.443 E4.26364
G1 X132.825 Y150.876 E4.29722
G1 X131.76 Y151.323 E4.33564
G1 X131.555 Y151.407 E4.34301
G1 X130.197 Y151.945 E4.39159
G1 X129.463 Y152.224 E4.41771
G1 X128.518 Y152.535 E4.4508
G1 X127.447 Y152.834 E4.48778
G1 X127.221 Y152.894 E4.49556
G1 X125.599 Y153.309 E4.55124
G1 X125.028 Y153.447 E4.57078
G1 X124.046 Y153.638 E4.60405
G1 X122.884 Y153.809 E4.64312
G1 X122.658 Y153.84 E4.65071
G1 X121.222 Y154.021 E4.69885
G1 X120.446 Y154.108 E4.72482
G1 X119.453 Y154.174 E4.75792
G1 X118.335 Y154.197 E4.79511
G1 X118.109 Y154.199 E4.80263
G1 X116.44 Y154.198 E4.85814
G1 X115.854 Y154.19 E4.87763
G1 X114.843 Y154.13 E4.91132
G1 X113.703 Y154.009 E4.94944
G1 X113.49 Y153.984 E4.95658
G1 X112.028 Y153.8 E5.00559
G1 X111.256 Y153.692 E5.03151
G1 X110.275 Y153.508 E5.06471
G1 X109.173 Y153.249 E5.10236
G1 X108.952 Y153.195 E5.10993
G1 X107.318 Y152.774 E5.16605
G1 X106.8 Y152.634 E5.1839
G1 X105.827 Y152.322 E5.21788
G1 X104.738 Y151.916 E5.25654
G1 X104.528 Y151.835 E5.26403
G1 X103.009 Y151.232 E5.31838
G1 X102.434 Y150.994 E5.33908
G1 X101.547 Y150.579 E5.37165
G1 X100.569 Y150.068 E5.40835
G1 X100.359 Y149.956 E5.41627
G1 X98.868 Y149.134 E5.4729
G1 X98.377 Y148.855 E5.49168
G1 X97.53 Y148.322 E5.52497
G1 X96.604 Y147.678 E5.56248
G1 X96.422 Y147.548 E5.56992
G1 X95.067 Y146.563 E5.62564
G1 X94.612 Y146.223 E5.64453
G1 X93.831 Y145.582 E5.67813
G1 X92.959 Y144.796 E5.71718
G1 X92.793 Y144.643 E5.72469
G1 X91.592 Y143.513 E5.77953
G1 X91.177 Y143.112 E5.79873
G1 X90.491 Y142.386 E5.83195
G1 X89.757 Y141.535 E5.86933
G1 X89.609 Y141.36 E5.87695
G1 X88.532 Y140.055 E5.93323
G1 X88.168 Y139.601 E5.95258
G1 X87.587 Y138.806 E5.98533
G1 X86.96 Y137.862 E6.02302
G1 X86.835 Y137.67 E6.03064
G1 X85.949 Y136.272 E6.08569
G1 X85.639 Y135.768 E6.10537
G1 X85.155 Y134.894 E6.1386
G1 X84.636 Y133.848 E6.17744
G1 X84.536 Y133.64 E6.18512
G1 X83.84 Y132.158 E6.23957
G1 X83.6 Y131.629 E6.25889
G1 X83.227 Y130.696 E6.29231
G1 X82.855 Y129.626 E6.32999
G1 X82.785 Y129.418 E6.33729
G1 X82.317 Y127.98 E6.38759
G1 X82.091 Y127.25 E6.413
G1 X81.843 Y126.296 E6.44579
G1 X81.608 Y125.188 E6.48346
G1 X81.565 Y124.973 E6.49075
G1 X81.243 Y123.285 E6.54791
G1 X81.147 Y122.736 E6.56645
G1 X81.021 Y121.752 E6.59944
G1 X80.929 Y120.645 E6.63639
G1 X80.913 Y120.426 E6.64369
G1 X80.809 Y118.763 E6.69911
G1 X80.779 Y118.149 E6.71956
G1 X80.776 Y117.15 E6.75278
G1 X80.823 Y116.033 E6.78997
G1 X80.835 Y115.802 E6.79766
G1 X80.94 Y114.159 E6.85242
G1 X80.988 Y113.537 E6.87317
G1 X81.111 Y112.538 E6.90665
G1 X81.297 Y111.445 E6.94352
G1 X81.335 Y111.233 E6.95069
G1 X81.647 Y109.598 E7.00605
G1 X81.767 Y109.01 E7.02601
G1 X82.017 Y108.021 E7.05994
G1 X82.339 Y106.958 E7.09688
G1 X82.407 Y106.743 E7.10438
G1 X82.913 Y105.19 E7.1587
G1 X83.106 Y104.619 E7.17875
G1 X83.485 Y103.652 E7.2133
G1 X83.962 Y102.585 E7.25217
G1 X84.052 Y102.389 E7.25934
G1 X84.737 Y100.934 E7.31283
G1 X84.997 Y100.399 E7.33262
G1 X85.486 Y99.502 E7.3666
G1 X86.075 Y98.531 E7.40437
G1 X86.194 Y98.34 E7.41185
G1 X87.102 Y96.912 E7.46814
G1 X87.411 Y96.441 E7.48687
G1 X87.99 Y95.64 E7.51975
G1 X88.703 Y94.741 E7.55791
G1 X88.845 Y94.565 E7.56543
G1 X89.911 Y93.277 E7.62104
G1 X90.274 Y92.85 E7.63968
G1 X90.958 Y92.116 E7.67305
G0 F6000 X91.238 Y92.402
G1 F1200 X92.061 Y91.596 E7.71136
G1 X92.223 Y91.441 E7.71882
G1 X93.407 Y90.33 E7.77282
G1 X93.856 Y89.92 E7.79304
G1 X94.595 Y89.305 E7.82502
G1 X95.496 Y88.621 E7.86265
G1 X95.68 Y88.485 E7.87026
G1 X96.997 Y87.529 E7.92438
G1 X97.505 Y87.17 E7.94507
G1 X98.332 Y86.642 E7.97771
G1 X99.273 Y86.1 E8.01383
G1 X99.458 Y85.996 E8.02088
G1 X100.94 Y85.182 E8.07712
G1 X101.451 Y84.91 E8.09638
G1 X102.33 Y84.493 E8.12873
G1 X103.395 Y84.046 E8.16715
G1 X103.593 Y83.965 E8.17427
G1 X105.094 Y83.372 E8.22794
G1 X105.679 Y83.15 E8.24875
G1 X106.59 Y82.85 E8.28066
G1 X107.661 Y82.551 E8.31764
G1 X107.878 Y82.493 E8.32511
G1 X109.352 Y82.115 E8.37572
G1 X110.066 Y81.942 E8.40016
G1 X111.013 Y81.758 E8.43224
G1 X112.175 Y81.587 E8.47131
G1 X112.392 Y81.557 E8.47859
G1 X113.98 Y81.358 E8.53182
G1 X114.599 Y81.289 E8.55254
G1 X115.555 Y81.226 E8.5844
G1 X116.673 Y81.203 E8.6216
G1 X116.891 Y81.201 E8.62885
G1 X118.41 Y81.201 E8.67937
G1 X119.141 Y81.21 E8.70369
G1 X120.115 Y81.268 E8.73614
G1 X121.255 Y81.389 E8.77427
G1 X121.46 Y81.413 E8.78113
G1 X123.078 Y81.618 E8.83538
G1 X123.688 Y81.704 E8.85587
G1 X124.633 Y81.881 E8.88784
G1 X125.735 Y82.14 E8.9255
G1 X125.948 Y82.193 E8.9328
G1 X127.578 Y82.612 E8.98877
G1 X128.096 Y82.752 E9.00662
G1 X129.034 Y83.053 E9.03938
G1 X130.12 Y83.458 E9.07794
G1 X130.32 Y83.535 E9.08506
G1 X131.688 Y84.077 E9.134
G1 X132.408 Y84.374 E9.15991
G1 X133.265 Y84.774 E9.19136
G1 X134.245 Y85.286 E9.22814
G1 X134.448 Y85.394 E9.23579
G1 X135.935 Y86.214 E9.29227
G1 X136.426 Y86.493 E9.31105
G1 X137.241 Y87.007 E9.3431
G1 X138.167 Y87.651 E9.38061
G1 X138.343 Y87.776 E9.38779
G1 X139.694 Y88.758 E9.44334
G1 X140.149 Y89.098 E9.46224
G1 X140.901 Y89.715 E9.49459
G1 X141.773 Y90.501 E9.53363
G1 X141.933 Y90.649 E9.54088
G1 X143.129 Y91.774 E9.5955
G1 X143.542 Y92.173 E9.6146
G1 X144.202 Y92.871 E9.64655
G1 X144.938 Y93.724 E9.68402
G1 X145.083 Y93.895 E9.69147
G1 X146.156 Y95.195 E9.74754
G1 X146.52 Y95.649 E9.76689
G1 X147.08 Y96.415 E9.79845
G1 X147.707 Y97.359 E9.83614
G1 X147.827 Y97.545 E9.84351
G1 X148.708 Y98.935 E9.89824
G1 X149.017 Y99.437 E9.91785
G1 X149.485 Y100.282 E9.94998
G1 X150.005 Y101.33 E9.98889
G1 X150.102 Y101.53 E9.99628
G1 X150.797 Y103.009 E10.05063
G1 X151.036 Y103.536 E10.06988
G1 X151.393 Y104.431 E10.10193
G1 X151.835 Y105.706 E10.14681
G1 X152.303 Y107.144 E10.19711
G1 X152.526 Y107.866 E10.22224
G1 X152.764 Y108.78 E10.25365
G1 X153 Y109.891 E10.29143
G1 X153.332 Y111.618 E10.34992
G1 X153.457 Y112.325 E10.3738
G1 X153.581 Y113.281 E10.40587
G1 X153.673 Y114.39 E10.44288
G1 X153.688 Y114.6 E10.44988
G1 X153.791 Y116.257 E10.5051
G1 X153.821 Y116.871 E10.52554
G1 X153.825 Y117.834 E10.55757
G1 X153.778 Y118.951 E10.59476
G1 X153.766 Y119.172 E10.60212
G1 X153.662 Y120.811 E10.65674
G1 X153.614 Y121.433 E10.67749
G1 X153.495 Y122.395 E10.70973
G1 X153.309 Y123.488 E10.74661
G1 X153.272 Y123.692 E10.7535
G1 X152.961 Y125.322 E10.8087
G1 X152.841 Y125.91 E10.82866
G1 X152.6 Y126.863 E10.86135
G1 X152.278 Y127.926 E10.89829
G1 X152.213 Y128.133 E10.90551
G1 X151.708 Y129.682 E10.9597
G1 X151.515 Y130.253 E10.97975
G1 X151.15 Y131.185 E11.01304
G1 X150.673 Y132.252 E11.05191
G1 X150.587 Y132.44 E11.05879
G1 X149.903 Y133.891 E11.11214
G1 X149.643 Y134.426 E11.13192
G1 X149.172 Y135.291 E11.16468
G1 X148.583 Y136.262 E11.20246
G1 X148.469 Y136.445 E11.20963
G1 X147.564 Y137.869 E11.26574
G1 X147.255 Y138.34 E11.28448
G1 X146.697 Y139.112 E11.31616
G1 X145.984 Y140.011 E11.35433
G1 X145.847 Y140.18 E11.36156
G1 X144.784 Y141.464 E11.417
G1 X144.421 Y141.891 E11.43564
G1 X143.762 Y142.598 E11.46779
G1 X142.939 Y143.404 E11.5061
G1 X142.777 Y143.559 E11.51356
G1 X141.593 Y144.67 E11.56756
G1 X141.144 Y145.08 E11.58779
G1 X140.405 Y145.695 E11.61976
G1 X139.504 Y146.379 E11.65739
G1 X139.32 Y146.515 E11.665
G1 X138.003 Y147.471 E11.71913
G1 X137.495 Y147.83 E11.73981
G1 X136.668 Y148.358 E11.77245
G1 X135.727 Y148.9 E11.80857
G1 X135.542 Y149.004 E11.81563
G1 X134.06 Y149.818 E11.87186
G1 X133.549 Y150.09 E11.89112
G1 X132.67 Y150.507 E11.92348
G1 X131.605 Y150.954 E11.96189
G1 X131.407 Y151.035 E11.96901
G1 X129.906 Y151.628 E12.02268
G1 X129.321 Y151.85 E12.0435
G1 X128.41 Y152.15 E12.0754
G1 X127.339 Y152.449 E12.11238
G1 X127.122 Y152.507 E12.11985
G1 X125.648 Y152.885 E12.17046
G1 X124.934 Y153.058 E12.1949
G1 X123.987 Y153.242 E12.22698
G1 X122.825 Y153.413 E12.26605
G1 X122.608 Y153.443 E12.27333
G1 X121.02 Y153.642 E12.32656
G1 X120.401 Y153.711 E12.34728
G1 X119.445 Y153.774 E12.37915
G1 X118.327 Y153.797 E12.41634
G1 X118.109 Y153.799 E12.42359
G1 X116.445 Y153.798 E12.47893
G1 X115.859 Y153.79 E12.49843
G1 X114.885 Y153.732 E12.53088
G1 X113.745 Y153.611 E12.56901
G1 X113.54 Y153.587 E12.57587
G1 X111.922 Y153.382 E12.63012
G1 X111.312 Y153.296 E12.65061
G1 X110.367 Y153.119 E12.68259
G1 X109.265 Y152.86 E12.72024
G1 X109.052 Y152.807 E12.72754
G1 X107.422 Y152.388 E12.78351
G1 X106.904 Y152.248 E12.80136
G1 X105.967 Y151.947 E12.83409
G1 X104.878 Y151.541 E12.87275
G1 X104.675 Y151.463 E12.87998
G1 X103.162 Y150.862 E12.93413
G1 X102.587 Y150.624 E12.95483
G1 X101.732 Y150.225 E12.98621
G1 X100.754 Y149.714 E13.02291
G1 X100.552 Y149.606 E13.03053
G1 X99.065 Y148.786 E13.08701
G1 X98.574 Y148.507 E13.10579
G1 X97.759 Y147.993 E13.13784
G1 X96.833 Y147.349 E13.17535
G1 X96.657 Y147.224 E13.18253
G1 X95.306 Y146.242 E13.23809
G1 X94.851 Y145.902 E13.25698
G1 X94.099 Y145.285 E13.28933
G1 X93.227 Y144.499 E13.32838
G1 X93.067 Y144.351 E13.33563
G1 X91.87 Y143.226 E13.39026
G1 X91.455 Y142.825 E13.40946
G1 X90.794 Y142.125 E13.44148
G1 X90.06 Y141.274 E13.47885
G1 X89.917 Y141.105 E13.48622
G1 X88.844 Y139.805 E13.54228
G1 X88.48 Y139.351 E13.56164
G1 X87.92 Y138.585 E13.5932
G1 X87.293 Y137.641 E13.63089
G1 X87.173 Y137.455 E13.63825
G1 X86.29 Y136.062 E13.69311
G1 X85.98 Y135.558 E13.71279
G1 X85.514 Y134.716 E13.74479
G1 X84.995 Y133.67 E13.78363
G1 X84.898 Y133.47 E13.79102
G1 X84.204 Y131.992 E13.84533
G1 X83.964 Y131.463 E13.86465
G1 X83.605 Y130.565 E13.89682
G1 X83.233 Y129.495 E13.9345
G1 X83.165 Y129.294 E13.94155
G1 X82.646 Y127.695 E13.99747
G1 X82.473 Y127.133 E14.01703
G1 X82.235 Y126.213 E14.04863
G1 X82 Y125.105 E14.0863
G1 X81.958 Y124.898 E14.09333
G1 X81.637 Y123.216 E14.15028
G1 X81.541 Y122.667 E14.16882
G1 X81.419 Y121.719 E14.20061
G1 X81.327 Y120.612 E14.23756
G1 X81.312 Y120.4 E14.24463
G1 X81.209 Y118.743 E14.29984
G1 X81.179 Y118.129 E14.32029
G1 X81.175 Y117.166 E14.35232
G1 X81.222 Y116.049 E14.3895
G1 X81.234 Y115.828 E14.39687
G1 X81.338 Y114.189 E14.45149
G1 X81.386 Y113.567 E14.47224
G1 X81.505 Y112.605 E14.50448
G1 X81.691 Y111.512 E14.54135
G1 X81.728 Y111.308 E14.54825
G1 X82.039 Y109.678 E14.60344
G1 X82.159 Y109.09 E14.6234
G1 X82.4 Y108.137 E14.6561
G1 X82.722 Y107.074 E14.69304
G1 X82.787 Y106.867 E14.70025
G1 X83.292 Y105.318 E14.75444
G1 X83.485 Y104.747 E14.77449
G1 X83.85 Y103.815 E14.80778
G1 X84.327 Y102.748 E14.84665
G1 X84.413 Y102.56 E14.85353
G1 X85.097 Y101.109 E14.90688
G1 X85.357 Y100.574 E14.92667
G1 X85.828 Y99.709 E14.95943
G1 X86.417 Y98.738 E14.9972
G1 X86.531 Y98.555 E15.00437
G1 X87.436 Y97.131 E15.06049
G1 X87.745 Y96.66 E15.07923
G1 X88.303 Y95.888 E15.11091
G1 X89.016 Y94.989 E15.14907
G1 X89.153 Y94.82 E15.15631
G1 X90.216 Y93.536 E15.21175
G1 X90.579 Y93.109 E15.23039
G1 X91.238 Y92.402 E15.26253
G0 F6000 X91.518 Y92.688
G1 F1200 X92.341 Y91.882 E15.30085
G1 X92.497 Y91.732 E15.30805
G1 X93.677 Y90.626 E15.36184
G1 X94.126 Y90.216 E15.38206
G1 X94.836 Y89.624 E15.41281
G1 X95.737 Y88.94 E15.45043
G1 X95.915 Y88.808 E15.4578
G1 X97.228 Y87.856 E15.51174
G1 X97.736 Y87.497 E15.53243
G1 X98.532 Y86.988 E15.56386
G1 X99.473 Y86.446 E15.59998
G1 X101.007 Y85.601 E15.65823
G1 X101.639 Y85.263 E15.68206
G1 X102.484 Y84.862 E15.71317
G1 X103.549 Y84.415 E15.75159
