;FLAVOR:Marlin
;TIME:8462
;Filament used: 5.34561m
;Layer height: 0.2
;MINX:86.5
;MINY:90.509
;MINZ:0.2
;MAXX:148.5
;MAXY:181.991
;MAXZ:16.2
;Generated with Cura_SteamEngine 4.13.1
M140 S60
M105
M190 S60
M104 S200
M105
M109 S200
M82 ;absolute extrusion mode
; Ender 3 Custom Start G-code
G92 E0 ; Reset Extruder
G28 ; Home all axes
G1 Z2.0 F3000 ; Move Z Axis up little to prevent scratching of Heat Bed
G1 X0.1 Y20 Z0.3 F5000.0 ; Move to start position
G1 X0.1 Y200.0 Z0.3 F1500.0 E15 ; Draw the first line
G1 X0.4 Y200.0 Z0.3 F5000.0 ; Move to side a little
G1 X0.4 Y20 Z0.3 F1500.0 E30 ; Draw the second line
G92 E0 ; Reset Extruder
G1 Z2.0 F3000 ; Move Z Axis up little to prevent scratching of Heat Bed
G1 X5 Y20 Z0.3 F5000.0 ; Move over to prevent blob squish
G92 E0
G92 E0
G1 F2700 E-5
;LAYER_COUNT:81
;LAYER:0
M107
G0 F6000 X101.281 Y93.997 Z0.2
;TYPE:SKIRT
G1 F2700 E0
G1 F1200 X101.951 Y93.34 E0.03121
G1 X102.674 Y92.743 E0.0624
G1 X103.446 Y92.21 E0.0936
G1 X104.26 Y91.745 E0.12478
G1 X105.111 Y91.35 E0.15598
G1 X105.992 Y91.03 E0.18716
G1 X106.898 Y90.785 E0.21837
G1 X107.821 Y90.619 E0.24957
G1 X109.001 Y90.522 E0.28894
G1 X109.323 Y90.513 E0.29966
G1 X109.63 Y90.509 E0.30987
G1 X124.793 Y90.509 E0.81419
G1 X125.652 Y90.52 E0.84277
G1 X126.588 Y90.573 E0.87395
G1 X127.516 Y90.706 E0.90513
G1 X128.43 Y90.918 E0.93634
G1 X129.323 Y91.206 E0.96754
G1 X130.187 Y91.57 E0.99873
G1 X131.018 Y92.006 E1.02994
G1 X131.808 Y92.511 E1.06112
G1 X132.552 Y93.081 E1.0923
G1 X133.245 Y93.713 E1.12349
G1 X133.882 Y94.402 E1.1547
G1 X134.458 Y95.142 E1.18589
G1 X135.1 Y96.158 E1.22586
G1 X135.34 Y96.591 E1.24233
G1 X136.24 Y98.257 E1.30531
G1 X137.498 Y100.433 E1.38891
G1 X138.805 Y102.554 E1.47177
G1 X140.22 Y104.712 E1.5576
G1 X141.63 Y106.734 E1.63959
G1 X143.151 Y108.79 E1.72465
G1 X144.69 Y110.752 E1.80759
G1 X145.545 Y111.779 E1.85203
G1 X146.046 Y112.399 E1.87855
G1 X146.604 Y113.153 E1.90975
G1 X147.095 Y113.952 E1.94094
G1 X147.517 Y114.79 E1.97214
G1 X147.866 Y115.66 E2.00332
G1 X148.139 Y116.557 E2.03451
G1 X148.335 Y117.475 E2.06573
G1 X148.452 Y118.405 E2.0969
G1 X148.485 Y118.976 E2.11593
G1 X148.495 Y119.302 E2.12677
G1 X148.5 Y119.639 E2.13798
G1 X148.5 Y135.545 E2.66702
G1 X148.496 Y136.648 E2.70371
G1 X148.5 Y137.207 E2.7223
G1 X148.499 Y152.617 E3.23484
G1 X148.489 Y153.339 E3.25885
G1 X148.436 Y154.276 E3.29007
G1 X148.303 Y155.204 E3.32125
G1 X148.092 Y156.118 E3.35245
G1 X147.804 Y157.01 E3.38362
G1 X147.441 Y157.875 E3.41483
G1 X147.005 Y158.706 E3.44604
G1 X146.501 Y159.496 E3.47721
G1 X146.145 Y159.976 E3.49708
G1 X145.97 Y160.197 E3.50646
G1 X144.441 Y162.092 E3.58744
G1 X142.904 Y164.111 E3.67184
G1 X141.442 Y166.148 E3.75523
G1 X140.045 Y168.217 E3.83827
G1 X138.687 Y170.357 E3.92257
G1 X137.379 Y172.55 E4.00749
G1 X136.18 Y174.7 E4.08937
G1 X135.909 Y175.217 E4.10879
G1 X135.396 Y176.167 E4.1447
G1 X134.87 Y177.042 E4.17865
G1 X134.842 Y177.084 E4.18033
G1 X134.289 Y177.841 E4.21151
G1 X133.673 Y178.549 E4.24273
G1 X132.999 Y179.201 E4.27392
G1 X132.273 Y179.794 E4.30509
G1 X131.498 Y180.323 E4.3363
G1 X130.681 Y180.784 E4.3675
G1 X129.828 Y181.174 E4.3987
G1 X128.945 Y181.489 E4.42988
G1 X128.038 Y181.728 E4.46108
G1 X127.114 Y181.889 E4.49227
G1 X125.999 Y181.978 E4.52948
G1 X125.68 Y181.987 E4.54009
G1 X125.37 Y181.991 E4.5504
G1 X110.05 Y181.99 E5.05995
G1 X109.348 Y181.98 E5.0833
G1 X108.412 Y181.927 E5.11448
G1 X107.484 Y181.794 E5.14566
G1 X106.57 Y181.582 E5.17687
G1 X105.677 Y181.294 E5.20807
G1 X104.813 Y180.93 E5.23926
G1 X103.982 Y180.494 E5.27047
G1 X103.192 Y179.989 E5.30165
G1 X102.448 Y179.419 E5.33283
G1 X101.755 Y178.787 E5.36402
G1 X101.118 Y178.098 E5.39523
G1 X100.542 Y177.358 E5.42642
G1 X99.9 Y176.342 E5.4664
G1 X99.66 Y175.909 E5.48286
G1 X98.76 Y174.243 E5.54584
G1 X97.502 Y172.067 E5.62944
G1 X96.195 Y169.946 E5.7123
G1 X94.791 Y167.805 E5.79746
G1 X93.361 Y165.755 E5.88059
G1 X91.857 Y163.721 E5.96473
G1 X90.298 Y161.734 E6.04873
G1 X89.455 Y160.721 E6.09256
G1 X88.954 Y160.101 E6.11908
G1 X88.396 Y159.347 E6.15027
G1 X87.905 Y158.548 E6.18147
G1 X87.483 Y157.71 E6.21267
G1 X87.134 Y156.84 E6.24385
G1 X86.861 Y155.943 E6.27504
G1 X86.665 Y155.025 E6.30626
G1 X86.548 Y154.095 E6.33743
G1 X86.515 Y153.524 E6.35646
G1 X86.505 Y153.198 E6.3673
G1 X86.5 Y152.861 E6.37851
G1 X86.5 Y136.955 E6.90755
G1 X86.504 Y135.852 E6.94423
G1 X86.5 Y135.293 E6.96283
G1 X86.501 Y119.86 E7.47613
G1 X86.511 Y119.157 E7.49952
G1 X86.564 Y118.22 E7.53073
G1 X86.697 Y117.292 E7.56191
G1 X86.909 Y116.378 E7.59312
G1 X87.197 Y115.486 E7.62429
G1 X87.561 Y114.621 E7.65551
G1 X87.997 Y113.791 E7.68669
G1 X88.502 Y113 E7.7179
G1 X88.855 Y112.524 E7.73761
G1 X89.03 Y112.303 E7.74699
G1 X90.559 Y110.408 E7.82798
G1 X92.096 Y108.389 E7.91237
G1 X93.558 Y106.352 E7.99577
G1 X94.955 Y104.283 E8.0788
G1 X96.313 Y102.143 E8.1631
G1 X97.621 Y99.95 E8.24803
G1 X98.827 Y97.788 E8.33037
G1 X99.115 Y97.239 E8.35099
G1 X99.639 Y96.273 E8.38754
G1 X100.121 Y95.469 E8.41872
G1 X100.67 Y94.708 E8.44993
G1 X101.281 Y93.997 E8.48111
G0 F6000 X101.608 Y94.233
G1 F1200 X102.269 Y93.593 E8.51171
G1 X102.983 Y93.012 E8.54232
G1 X103.745 Y92.495 E8.57295
G1 X104.549 Y92.046 E8.60358
G1 X105.389 Y91.669 E8.6342
G1 X106.258 Y91.366 E8.66481
G1 X107.151 Y91.14 E8.69545
G1 X108.059 Y90.992 E8.72605
G1 X109.012 Y90.922 E8.75783
G1 X109.334 Y90.913 E8.76855
G1 X109.63 Y90.909 E8.77839
G1 X124.793 Y90.909 E9.28271
G1 X125.646 Y90.92 E9.31109
G1 X126.565 Y90.973 E9.3417
G1 X127.476 Y91.106 E9.37233
G1 X128.372 Y91.317 E9.40294
G1 X129.247 Y91.605 E9.43358
G1 X130.093 Y91.968 E9.4642
G1 X130.904 Y92.403 E9.49481
G1 X131.675 Y92.907 E9.52545
G1 X132.399 Y93.475 E9.55605
G1 X133.071 Y94.105 E9.58669
G1 X133.685 Y94.79 E9.61729
G1 X134.238 Y95.526 E9.6479
G1 X134.751 Y96.353 E9.68027
G1 X134.989 Y96.781 E9.69656
G1 X135.9 Y98.468 E9.76033
G1 X137.154 Y100.637 E9.84366
G1 X138.49 Y102.804 E9.92833
G1 X139.874 Y104.915 E10.01229
G1 X141.313 Y106.979 E10.09597
G1 X142.83 Y109.03 E10.18082
G1 X144.367 Y110.988 E10.26361
G1 X145.234 Y112.031 E10.30872
G1 X145.735 Y112.651 E10.33524
G1 X146.282 Y113.391 E10.36584
G1 X146.762 Y114.177 E10.39648
G1 X147.173 Y115 E10.42707
G1 X147.511 Y115.857 E10.45771
G1 X147.773 Y116.74 E10.48835
G1 X147.957 Y117.641 E10.51893
G1 X148.085 Y118.988 E10.56394
G1 X148.095 Y119.314 E10.57478
G1 X148.1 Y119.639 E10.58559
G1 X148.1 Y135.544 E11.1146
G1 X148.096 Y136.651 E11.15142
G1 X148.1 Y137.21 E11.17001
G1 X148.099 Y152.612 E11.68228
G1 X148.089 Y153.334 E11.7063
G1 X148.036 Y154.253 E11.73691
G1 X147.904 Y155.164 E11.76753
G1 X147.693 Y156.06 E11.79815
G1 X147.405 Y156.935 E11.82879
G1 X147.043 Y157.781 E11.85939
G1 X146.608 Y158.593 E11.89003
G1 X145.831 Y159.729 E11.93581
G1 X145.659 Y159.946 E11.94502
G1 X144.11 Y161.866 E12.02707
G1 X142.593 Y163.858 E12.11035
G1 X141.102 Y165.937 E12.19544
G1 X139.708 Y168 E12.27825
G1 X138.348 Y170.143 E12.36267
G1 X137.045 Y172.33 E12.44734
G1 X135.819 Y174.526 E12.53099
G1 X135.557 Y175.027 E12.54979
G1 X135.044 Y175.977 E12.5857
G1 X134.537 Y176.82 E12.61842
G1 X134.509 Y176.862 E12.6201
G1 X133.965 Y177.605 E12.65073
G1 X133.359 Y178.298 E12.68135
G1 X132.696 Y178.936 E12.71195
G1 X131.979 Y179.514 E12.74258
G1 X131.215 Y180.028 E12.77321
G1 X130.409 Y180.473 E12.80383
G1 X129.568 Y180.847 E12.83444
G1 X128.697 Y181.146 E12.86507
G1 X127.804 Y181.369 E12.89569
G1 X126.895 Y181.513 E12.9263
G1 X125.988 Y181.578 E12.95654
G1 X125.669 Y181.587 E12.96716
G1 X125.37 Y181.591 E12.9771
G1 X110.056 Y181.59 E13.48645
G1 X109.354 Y181.58 E13.5098
G1 X108.435 Y181.527 E13.54042
G1 X107.524 Y181.394 E13.57104
G1 X106.628 Y181.183 E13.60165
G1 X105.753 Y180.895 E13.63229
G1 X104.907 Y180.532 E13.66291
G1 X104.096 Y180.097 E13.69352
G1 X103.325 Y179.593 E13.72416
G1 X102.601 Y179.025 E13.75476
G1 X101.929 Y178.395 E13.7854
G1 X101.315 Y177.71 E13.816
G1 X100.762 Y176.974 E13.84661
G1 X100.249 Y176.147 E13.87898
G1 X100.011 Y175.719 E13.89527
G1 X99.1 Y174.032 E13.95904
G1 X97.846 Y171.863 E14.04237
G1 X96.51 Y169.696 E14.12704
G1 X95.137 Y167.602 E14.21032
G1 X93.678 Y165.51 E14.29516
G1 X92.178 Y163.482 E14.37905
G1 X90.605 Y161.477 E14.46381
G1 X89.766 Y160.469 E14.50743
G1 X89.265 Y159.849 E14.53395
G1 X88.718 Y159.109 E14.56455
G1 X88.238 Y158.323 E14.59518
G1 X87.827 Y157.5 E14.62578
G1 X87.489 Y156.643 E14.65642
G1 X87.227 Y155.76 E14.68706
G1 X87.043 Y154.859 E14.71764
G1 X86.915 Y153.512 E14.76264
G1 X86.905 Y153.186 E14.77349
G1 X86.9 Y152.861 E14.7843
G1 X86.9 Y136.956 E15.31331
G1 X86.904 Y135.849 E15.35012
G1 X86.9 Y135.29 E15.36872
G1 X86.901 Y119.865 E15.88176
G1 X86.911 Y119.162 E15.90514
G1 X86.964 Y118.243 E15.93576
G1 X87.097 Y117.332 E15.96638
G1 X87.308 Y116.436 E15.99699
G1 X87.596 Y115.562 E16.0276
G1 X87.959 Y114.715 E16.05825
G1 X88.394 Y113.904 E16.08886
G1 X89.169 Y112.771 E16.13452
G1 X89.341 Y112.554 E16.14373
G1 X90.89 Y110.634 E16.22578
G1 X92.407 Y108.642 E16.30906
G1 X93.898 Y106.563 E16.39415
G1 X95.292 Y104.5 E16.47696
G1 X96.652 Y102.357 E16.56138
G1 X97.955 Y100.17 E16.64605
G1 X99.172 Y97.989 E16.72912
G1 X99.387 Y97.578 E16.74455
G1 X99.991 Y96.464 E16.78669
G1 X100.464 Y95.674 E16.81732
G1 X101.005 Y94.929 E16.84794
G1 X101.608 Y94.233 E16.87857
G0 F6000 X101.934 Y94.471
G1 F1200 X102.586 Y93.846 E16.90861
G1 X103.291 Y93.282 E16.93864
G1 X104.043 Y92.782 E16.96867
G1 X104.837 Y92.35 E16.99874
G1 X105.665 Y91.991 E17.02875
G1 X106.522 Y91.706 E17.05879
G1 X107.401 Y91.498 E17.08884
G1 X108.295 Y91.368 E17.11888
G1 X109.023 Y91.322 E17.14315
G1 X109.345 Y91.313 E17.15386
G1 X109.63 Y91.309 E17.16334
G1 X124.793 Y91.309 E17.66766
G1 X125.64 Y91.32 E17.69584
G1 X126.542 Y91.373 E17.72589
G1 X127.435 Y91.505 E17.75591
G1 X128.313 Y91.716 E17.78595
G1 X129.169 Y92.004 E17.81599
G1 X129.997 Y92.366 E17.84604
G1 X130.789 Y92.8 E17.87608
G1 X131.539 Y93.303 E17.90612
G1 X132.242 Y93.869 E17.93613
G1 X132.892 Y94.496 E17.96617
G1 X133.484 Y95.178 E17.99621
G1 X134.014 Y95.91 E18.02627
G1 X134.402 Y96.548 E18.0511
G1 X134.637 Y96.971 E18.0672
G1 X135.545 Y98.652 E18.13074
G1 X136.825 Y100.867 E18.21583
G1 X138.143 Y103.005 E18.29937
G1 X139.539 Y105.134 E18.38404
G1 X140.98 Y107.199 E18.46779
G1 X142.51 Y109.269 E18.55341
G1 X144.077 Y111.266 E18.63784
G1 X144.923 Y112.282 E18.68181
G1 X145.424 Y112.902 E18.70832
G1 X145.96 Y113.629 E18.73836
G1 X146.429 Y114.4 E18.76838
G1 X146.829 Y115.21 E18.79843
G1 X147.155 Y116.053 E18.82849
G1 X147.405 Y116.92 E18.8585
G1 X147.578 Y117.807 E18.88856
G1 X147.685 Y119 E18.92839
G1 X147.695 Y119.326 E18.93924
G1 X147.7 Y119.639 E18.94965
G1 X147.7 Y135.542 E19.47859
G1 X147.696 Y136.654 E19.51558
G1 X147.7 Y137.213 E19.53417
G1 X147.699 Y152.606 E20.04614
G1 X147.689 Y153.328 E20.07016
G1 X147.637 Y154.23 E20.10021
G1 X147.505 Y155.123 E20.13023
G1 X147.294 Y156.001 E20.16027
G1 X147.007 Y156.858 E20.19033
G1 X146.645 Y157.685 E20.22035
G1 X146.211 Y158.477 E20.25039
G1 X145.516 Y159.482 E20.29103
G1 X145.348 Y159.695 E20.30005
G1 X143.796 Y161.618 E20.38224
G1 X142.266 Y163.629 E20.46629
G1 X140.79 Y165.686 E20.5505
G1 X139.356 Y167.809 E20.63571
G1 X138 Y169.946 E20.71988
G1 X136.71 Y172.11 E20.80368
G1 X135.458 Y174.352 E20.88909
G1 X135.205 Y174.837 E20.90728
G1 X134.692 Y175.787 E20.94319
G1 X134.204 Y176.598 E20.97467
G1 X134.176 Y176.64 E20.97635
G1 X133.642 Y177.368 E21.00638
G1 X133.046 Y178.047 E21.03643
G1 X132.392 Y178.67 E21.06647
G1 X131.686 Y179.233 E21.0965
G1 X130.933 Y179.731 E21.12653
G1 X130.138 Y180.16 E21.15658
G1 X129.309 Y180.518 E21.18661
G1 X128.451 Y180.801 E21.21666
G1 X127.572 Y181.007 E21.24669
G1 X126.678 Y181.134 E21.27672
G1 X125.977 Y181.178 E21.30008
G1 X125.658 Y181.187 E21.31069
G1 X125.37 Y181.191 E21.32027
G1 X110.062 Y181.19 E21.82942
G1 X109.36 Y181.18 E21.85277
G1 X108.458 Y181.127 E21.88282
G1 X107.565 Y180.995 E21.91285
G1 X106.687 Y180.784 E21.94288
G1 X105.831 Y180.496 E21.97292
G1 X105.003 Y180.134 E22.00298
G1 X104.211 Y179.7 E22.03302
G1 X103.461 Y179.197 E22.06305
G1 X102.758 Y178.631 E22.09307
G1 X102.108 Y178.004 E22.12311
G1 X101.516 Y177.322 E22.15314
G1 X100.986 Y176.59 E22.1832
G1 X100.598 Y175.952 E22.20804
G1 X100.363 Y175.529 E22.22413
G1 X99.455 Y173.848 E22.28768
G1 X98.175 Y171.633 E22.37277
G1 X96.853 Y169.489 E22.45654
G1 X95.473 Y167.383 E22.54029
G1 X93.995 Y165.265 E22.62619
G1 X92.499 Y163.243 E22.70985
G1 X90.928 Y161.24 E22.79451
G1 X90.077 Y160.218 E22.83875
G1 X89.576 Y159.598 E22.86526
G1 X89.04 Y158.871 E22.8953
G1 X88.571 Y158.1 E22.92531
G1 X88.171 Y157.29 E22.95536
G1 X87.845 Y156.447 E22.98542
G1 X87.595 Y155.58 E23.01543
G1 X87.422 Y154.693 E23.04549
G1 X87.315 Y153.5 E23.08533
G1 X87.305 Y153.174 E23.09618
G1 X87.3 Y152.861 E23.10659
G1 X87.3 Y136.958 E23.63553
G1 X87.304 Y135.846 E23.67251
G1 X87.3 Y135.287 E23.6911
G1 X87.301 Y119.871 E24.20384
G1 X87.311 Y119.168 E24.22723
G1 X87.364 Y118.266 E24.25728
G1 X87.496 Y117.373 E24.2873
G1 X87.707 Y116.495 E24.31734
G1 X87.995 Y115.639 E24.34738
G1 X88.357 Y114.812 E24.3774
G1 X88.791 Y114.02 E24.40744
G1 X89.484 Y113.018 E24.44796
G1 X89.652 Y112.805 E24.45698
G1 X91.204 Y110.882 E24.53917
G1 X92.734 Y108.871 E24.62322
G1 X94.21 Y106.814 E24.70743
G1 X95.644 Y104.691 E24.79264
G1 X97 Y102.554 E24.87681
G1 X98.29 Y100.39 E24.96061
G1 X99.534 Y98.162 E25.04548
G1 X99.818 Y97.621 E25.0658
G1 X100.342 Y96.655 E25.10235
G1 X100.807 Y95.881 E25.13239
G1 X101.339 Y95.151 E25.16243
G1 X101.934 Y94.471 E25.19248
G1 F2700 E20.19248
;MESH:cornerT.stl(1)
G0 F6000 X117.156 Y106.283
G0 X116.065 Y105.309
G0 X115.966 Y106.66
G0 X116.152 Y107.23
G0 X116.52 Y107.634
G0 X117.411 Y108.112
;TYPE:WALL-INNER
G1 F2700 E25.19248
G1 F1200 X117.743 Y108.074 E25.2036
G1 X118.061 Y107.97 E25.21472
G1 X118.35 Y107.8 E25.22588
G1 X118.592 Y107.581 E25.23673
G1 X118.788 Y107.311 E25.24783
G1 X118.924 Y107.005 E25.25897
G1 X118.995 Y106.678 E25.2701
G1 X118.995 Y106.341 E25.2813
G1 X118.924 Y106.013 E25.29247
G1 X118.788 Y105.707 E25.3036
G1 X118.59 Y105.434 E25.31482
G1 X118.318 Y105.194 E25.32688
G1 X117.754 Y104.942 E25.34743
G1 X117.389 Y104.906 E25.35963
G1 X117.056 Y104.944 E25.37078
G1 X116.739 Y105.049 E25.38188
G1 X116.45 Y105.218 E25.39302
G1 X116.208 Y105.437 E25.40387
G1 X116.012 Y105.707 E25.41497
G1 X115.876 Y106.013 E25.42611
G1 X115.805 Y106.341 E25.43727
G1 X115.805 Y106.678 E25.44848
G1 X115.876 Y107.005 E25.45961
G1 X116.012 Y107.311 E25.47075
G1 X116.21 Y107.584 E25.48196
G1 X116.466 Y107.81 E25.49332
G1 X116.755 Y107.977 E25.50442
G1 X117.069 Y108.078 E25.51539
G1 X117.411 Y108.112 E25.52682
G0 F6000 X117.408 Y107.71
;TYPE:WALL-OUTER
G1 F1200 X117.657 Y107.681 E25.53516
G1 X117.896 Y107.603 E25.54352
G1 X118.112 Y107.476 E25.55186
G1 X118.293 Y107.312 E25.55998
G1 X118.44 Y107.11 E25.56829
G1 X118.542 Y106.88 E25.57666
G1 X118.595 Y106.635 E25.585
G1 X118.595 Y106.384 E25.59335
G1 X118.542 Y106.138 E25.60171
G1 X118.44 Y105.908 E25.61008
G1 X118.292 Y105.705 E25.61844
G1 X118.099 Y105.534 E25.62702
G1 X117.65 Y105.334 E25.64336
G1 X117.392 Y105.308 E25.65199
G1 X117.143 Y105.337 E25.66033
G1 X116.904 Y105.416 E25.6687
G1 X116.688 Y105.542 E25.67702
G1 X116.507 Y105.706 E25.68514
G1 X116.36 Y105.908 E25.69345
G1 X116.258 Y106.138 E25.70182
G1 X116.205 Y106.384 E25.71019
G1 X116.205 Y106.635 E25.71853
G1 X116.258 Y106.88 E25.72687
G1 X116.36 Y107.11 E25.73524
G1 X116.508 Y107.313 E25.7436
G1 X116.701 Y107.484 E25.75217
G1 X116.918 Y107.609 E25.7605
G1 X117.151 Y107.684 E25.76864
G1 X117.408 Y107.71 E25.77723
G0 F6000 X117.411 Y108.15
G1 F2700 E20.77723
G0 F6000 X116.677 Y108.152
G0 X117.267 Y106.814
G0 X102.769 Y127.214
G0 X103.95 Y126.351
G0 X103.911 Y127.708
G0 X103.665 Y128.257
G0 X103.418 Y128.481
G0 X102.678 Y129.003
;TYPE:WALL-INNER
G1 F2700 E25.77723
G1 F1200 X102.999 Y128.933 E25.78816
G1 X103.308 Y128.793 E25.79944
G1 X103.572 Y128.601 E25.8103
G1 X103.796 Y128.352 E25.82144
G1 X103.965 Y128.062 E25.83261
G1 X104.069 Y127.742 E25.8438
G1 X104.103 Y127.409 E25.85493
G1 X104.069 Y127.076 E25.86606
G1 X103.965 Y126.757 E25.87722
G1 X103.796 Y126.465 E25.88844
